; generated by PrusaSlicer 2.3.0+win64 on 2022-10-18 at 18:12:45 UTC

; 

; external perimeters extrusion width = 0.45mm
; perimeters extrusion width = 0.45mm
; infill extrusion width = 0.45mm
; solid infill extrusion width = 0.45mm
; top infill extrusion width = 0.40mm
; first layer extrusion width = 0.42mm

M73 P0 R88
M73 Q0 S89
M201 X1000 Y1000 Z200 E5000 ; sets maximum accelerations, mm/sec^2
M203 X200 Y200 Z12 E120 ; sets maximum feedrates, mm/sec
M204 P1250 R1250 T1250 ; sets acceleration (P, T) and retract acceleration (R), mm/sec^2
M205 X8.00 Y8.00 Z0.40 E4.50 ; sets the jerk limits, mm/sec
M205 S0 T0 ; sets the minimum extruding and travel feed rate, mm/sec
M107
;TYPE:Custom
M862.3 P "MK3" ; printer model check
M862.1 P0.4 ; nozzle diameter check
M115 U3.9.2 ; tell printer latest fw version
G90 ; use absolute coordinates
M83 ; extruder relative mode
M104 S215 ; set extruder temp
M140 S60 ; set bed temp
M190 S60 ; wait for bed temp
M109 S215 ; wait for extruder temp
G28 W ; home all without mesh bed level
G80 ; mesh bed leveling
G1 Y-3.0 F1000.0 ; go outside print area
G92 E0.0
G1 X60.0 E9.0 F1000.0 ; intro line
G1 X100.0 E12.5 F1000.0 ; intro line
G92 E0.0
M221 S95

; Don't change E values below. Excessive value can damage the printer.
M907 E430 ; set extruder motor current
G21 ; set units to millimeters
G90 ; use absolute coordinates
M83 ; use relative distances for extrusion
M900 K0.05 ; Filament gcode LA 1.5
M900 K30 ; Filament gcode LA 1.0
;LAYER_CHANGE
;Z:0.2
;HEIGHT:0.2
;BEFORE_LAYER_CHANGE
G92 E0.0
;0.2


G1 E-0.80000 F2100.000
G1 Z0.400 F10800.000
;AFTER_LAYER_CHANGE
;0.2
G1 X87.116 Y67.720
G1 Z0.200
G1 E0.80000 F2100.000
M204 S1000
;TYPE:Skirt
;WIDTH:0.42
G1 F1200.000
G1 X91.088 Y64.041 E0.16973
G1 X94.948 Y61.129 E0.15162
G1 X99.032 Y58.597 E0.15066
G1 X103.532 Y56.349 E0.15770
G1 X108.105 Y54.578 E0.15377
G1 X112.930 Y53.213 E0.15722
G1 X117.654 Y52.333 E0.15066
G1 X122.435 Y51.887 E0.15054
G1 X127.350 Y51.877 E0.15412
G1 X132.344 Y52.332 E0.15722
G1 X137.172 Y53.235 E0.15401
G1 X141.900 Y54.580 E0.15413
G1 X146.515 Y56.370 E0.15520
G1 X150.877 Y58.544 E0.15281
G1 X155.100 Y61.162 E0.15579
G1 X159.033 Y64.142 E0.15472
G1 X162.610 Y67.407 E0.15186
G1 X163.025 Y67.906 E0.02034
G1 X163.363 Y68.516 E0.02185
G1 X163.613 Y69.347 E0.02723
G1 X163.669 Y70.019 E0.02114
G1 X163.658 Y140.286 E2.20318
G1 X163.386 Y141.426 E0.03676
G1 X162.884 Y142.280 E0.03106
G1 X158.912 Y145.959 E0.16973
G1 X155.052 Y148.871 E0.15162
G1 X150.968 Y151.403 E0.15066
G1 X146.465 Y153.652 E0.15782
G1 X141.797 Y155.452 E0.15686
G1 X137.174 Y156.765 E0.15066
G1 X132.455 Y157.649 E0.15054
G1 X127.459 Y158.120 E0.15734
G1 X122.547 Y158.120 E0.15401
G1 X117.653 Y157.667 E0.15413
G1 X112.824 Y156.764 E0.15401
G1 X108.100 Y155.420 E0.15401
G1 X103.482 Y153.629 E0.15532
G1 X99.123 Y151.456 E0.15269
G1 X94.900 Y148.838 E0.15579
G1 X90.964 Y145.856 E0.15484
G1 X87.387 Y142.591 E0.15186
G1 X86.965 Y142.079 E0.02081
G1 X86.629 Y141.466 E0.02189
G1 X86.432 Y140.874 E0.01959
G1 X86.335 Y140.144 E0.02308
G1 X86.342 Y69.720 E2.20811
M73 Q0 S88
G1 X86.613 Y68.577 E0.03682
G1 X87.086 Y67.771 E0.02929
; printing object enclosure brace TOP.STL id:0 copy 0
;WIPE_START
G1 F8640.000
G1 X89.494 Y65.527 E-0.76000
;WIPE_END
G1 E-0.04000 F2100.000
G1 Z0.600 F10800.000
G1 X115.081 Y100.746
G1 Z0.200
G1 E0.80000 F2100.000
;TYPE:Perimeter
G1 F1200.000
G1 X115.874 Y100.191 E0.03035
G1 X116.751 Y99.782 E0.03035
G1 X117.686 Y99.532 E0.03035
G1 X118.609 Y99.451 E0.02905
G1 X119.612 Y99.531 E0.03156
G1 X120.549 Y99.782 E0.03042
G1 X121.426 Y100.191 E0.03035
G1 X122.219 Y100.746 E0.03035
G1 X122.904 Y101.431 E0.03035
G1 X123.459 Y102.224 E0.03035
G1 X123.868 Y103.101 E0.03035
G1 X124.107 Y103.996 E0.02905
G1 X124.203 Y104.998 E0.03156
G1 X124.118 Y105.964 E0.03042
G1 X123.868 Y106.899 E0.03035
G1 X123.459 Y107.776 E0.03035
G1 X122.904 Y108.569 E0.03035
G1 X122.219 Y109.254 E0.03035
G1 X121.426 Y109.809 E0.03035
G1 X120.549 Y110.218 E0.03035
G1 X119.614 Y110.468 E0.03035
G1 X118.650 Y110.553 E0.03035
G1 X117.686 Y110.468 E0.03035
G1 X116.751 Y110.218 E0.03035
G1 X115.874 Y109.809 E0.03035
G1 X115.081 Y109.254 E0.03035
G1 X114.396 Y108.569 E0.03035
G1 X113.841 Y107.776 E0.03035
G1 X113.432 Y106.899 E0.03035
G1 X113.182 Y105.964 E0.03035
G1 X113.097 Y105.000 E0.03035
G1 X113.182 Y104.036 E0.03035
G1 X113.432 Y103.101 E0.03035
G1 X113.841 Y102.224 E0.03035
G1 X114.396 Y101.431 E0.03035
G1 X115.038 Y100.789 E0.02847
G1 X115.305 Y101.056 F10800.000
;TYPE:External perimeter
G1 F1200.000
G1 X116.063 Y100.519 E0.02911
G1 X116.880 Y100.138 E0.02828
G1 X117.752 Y99.905 E0.02828
G1 X118.610 Y99.829 E0.02702
G1 X119.548 Y99.904 E0.02949
G1 X120.420 Y100.138 E0.02830
G1 X121.237 Y100.519 E0.02828
G1 X121.976 Y101.036 E0.02828
G1 X122.614 Y101.674 E0.02828
G1 X123.131 Y102.413 E0.02828
G1 X123.512 Y103.230 E0.02828
G1 X123.735 Y104.063 E0.02702
G1 X123.824 Y104.999 E0.02949
G1 X123.745 Y105.898 E0.02830
G1 X123.512 Y106.770 E0.02828
G1 X123.131 Y107.587 E0.02828
G1 X122.614 Y108.326 E0.02828
G1 X121.976 Y108.964 E0.02828
G1 X121.237 Y109.481 E0.02828
G1 X120.420 Y109.862 E0.02828
G1 X119.548 Y110.095 E0.02828
G1 X118.650 Y110.174 E0.02828
G1 X117.752 Y110.095 E0.02828
G1 X116.880 Y109.862 E0.02828
G1 X116.063 Y109.481 E0.02828
G1 X115.324 Y108.964 E0.02828
G1 X114.686 Y108.326 E0.02828
G1 X114.169 Y107.587 E0.02828
G1 X113.788 Y106.770 E0.02828
G1 X113.555 Y105.898 E0.02828
G1 X113.476 Y105.000 E0.02828
G1 X113.555 Y104.102 E0.02828
G1 X113.788 Y103.230 E0.02828
G1 X114.169 Y102.413 E0.02828
G1 X114.686 Y101.674 E0.02828
G1 X115.263 Y101.098 E0.02555
G1 X115.234 Y100.662 F10800.000
;WIPE_START
G1 F8640.000
G1 X116.063 Y100.519 E-0.22806
G1 X116.880 Y100.138 E-0.20825
G1 X117.752 Y99.905 E-0.20825
G1 X118.250 Y99.861 E-0.11544
;WIPE_END
G1 E-0.04000 F2100.000
G1 Z0.600 F10800.000
G1 X132.184 Y104.587
G1 Z0.200
G1 E0.80000 F2100.000
;TYPE:Perimeter
G1 F1200.000
G1 X132.291 Y104.187 E0.01299
G1 X132.466 Y103.811 E0.01299
G1 X132.704 Y103.472 E0.01299
G1 X132.997 Y103.179 E0.01299
G1 X133.336 Y102.941 E0.01299
G1 X133.712 Y102.766 E0.01299
G1 X134.112 Y102.659 E0.01299
G1 X134.497 Y102.625 E0.01210
G1 X134.934 Y102.658 E0.01376
G1 X135.338 Y102.766 E0.01311
G1 X135.714 Y102.941 E0.01299
G1 X136.053 Y103.179 E0.01299
G1 X136.346 Y103.472 E0.01299
G1 X136.584 Y103.811 E0.01299
G1 X136.747 Y104.161 E0.01210
G1 X136.866 Y104.583 E0.01376
G1 X136.903 Y105.000 E0.01311
G1 X136.866 Y105.413 E0.01299
G1 X136.759 Y105.813 E0.01299
G1 X136.584 Y106.189 E0.01299
G1 X136.346 Y106.528 E0.01299
G1 X136.053 Y106.821 E0.01299
G1 X135.714 Y107.059 E0.01299
G1 X135.338 Y107.234 E0.01299
G1 X134.938 Y107.341 E0.01299
G1 X134.525 Y107.378 E0.01299
G1 X134.112 Y107.341 E0.01299
G1 X133.712 Y107.234 E0.01299
G1 X133.336 Y107.059 E0.01299
G1 X132.997 Y106.821 E0.01299
G1 X132.724 Y106.548 E0.01210
G1 X132.468 Y106.192 E0.01376
G1 X132.291 Y105.813 E0.01311
G1 X132.184 Y105.413 E0.01299
G1 X132.147 Y105.000 E0.01299
G1 X132.178 Y104.647 E0.01111
G1 X132.554 Y104.680 F10800.000
;TYPE:External perimeter
G1 F1200.000
G1 X132.646 Y104.316 E0.01176
G1 X132.794 Y104.000 E0.01093
G1 X132.994 Y103.715 E0.01093
G1 X133.240 Y103.469 E0.01093
G1 X133.525 Y103.269 E0.01093
G1 X133.841 Y103.121 E0.01093
G1 X134.178 Y103.031 E0.01093
G1 X134.499 Y103.003 E0.01011
G1 X134.871 Y103.031 E0.01169
G1 X135.209 Y103.121 E0.01097
G1 X135.525 Y103.269 E0.01093
G1 X135.810 Y103.469 E0.01093
G1 X136.056 Y103.715 E0.01093
G1 X136.256 Y104.000 E0.01093
G1 X136.392 Y104.293 E0.01011
G1 X136.494 Y104.652 E0.01169
G1 X136.524 Y105.000 E0.01097
G1 X136.494 Y105.347 E0.01093
G1 X136.404 Y105.684 E0.01093
G1 X136.256 Y106.000 E0.01093
G1 X136.056 Y106.285 E0.01093
G1 X135.810 Y106.531 E0.01093
G1 X135.525 Y106.731 E0.01093
G1 X135.209 Y106.879 E0.01093
G1 X134.872 Y106.969 E0.01093
G1 X134.525 Y106.999 E0.01093
G1 X134.178 Y106.969 E0.01093
G1 X133.841 Y106.879 E0.01093
G1 X133.525 Y106.731 E0.01093
G1 X133.240 Y106.531 E0.01093
G1 X133.012 Y106.303 E0.01011
G1 X132.794 Y106.001 E0.01169
G1 X132.646 Y105.684 E0.01097
G1 X132.556 Y105.347 E0.01093
G1 X132.526 Y105.000 E0.01093
G1 X132.549 Y104.740 E0.00820
G1 X132.264 Y104.441 F10800.000
;WIPE_START
G1 F8640.000
G1 X132.646 Y104.316 E-0.10031
G1 X132.794 Y104.000 E-0.08046
G1 X132.994 Y103.715 E-0.08046
G1 X133.240 Y103.469 E-0.08046
G1 X133.525 Y103.269 E-0.08046
G1 X133.841 Y103.121 E-0.08046
G1 X134.178 Y103.031 E-0.08046
G1 X134.499 Y103.003 E-0.07443
G1 X134.871 Y103.031 E-0.08610
G1 X134.939 Y103.049 E-0.01640
;WIPE_END
G1 E-0.04000 F2100.000
G1 Z0.600 F10800.000
G1 X89.542 Y140.226
G1 Z0.200
G1 E0.80000 F2100.000
;TYPE:Perimeter
G1 F1200.000
G1 X89.499 Y140.065 E0.00523
G1 X89.513 Y139.899 E0.00523
G1 X89.584 Y139.748 E0.00523
G1 X89.702 Y139.630 E0.00523
G1 X89.853 Y139.559 E0.00523
G1 X89.935 Y139.545 E0.00262
G1 X90.101 Y139.559 E0.00523
G1 X90.252 Y139.630 E0.00523
G1 X93.785 Y142.833 E0.14953
G1 X97.538 Y145.639 E0.14690
G1 X101.553 Y148.082 E0.14738
G1 X102.433 Y148.467 E0.03012
G1 X103.381 Y148.699 E0.03060
G1 X104.355 Y148.765 E0.03060
G1 X105.326 Y148.663 E0.03060
G1 X106.264 Y148.395 E0.03060
G1 X107.143 Y147.971 E0.03060
G1 X107.936 Y147.402 E0.03060
G1 X108.620 Y146.706 E0.03060
G1 X109.173 Y145.902 E0.03060
G1 X109.581 Y145.016 E0.03060
G1 X109.831 Y144.072 E0.03060
G1 X109.912 Y143.134 E0.02953
G1 X109.912 Y66.866 E2.39133
G1 X109.831 Y65.928 E0.02953
G1 X109.581 Y64.984 E0.03060
G1 X109.173 Y64.098 E0.03060
G1 X108.620 Y63.294 E0.03060
G1 X107.936 Y62.598 E0.03060
G1 X107.143 Y62.029 E0.03060
G1 X106.264 Y61.605 E0.03060
G1 X105.326 Y61.337 E0.03060
G1 X104.355 Y61.235 E0.03060
G1 X103.381 Y61.301 E0.03060
G1 X102.433 Y61.533 E0.03060
G1 X101.553 Y61.918 E0.03012
G1 X97.538 Y64.361 E0.14738
G1 X93.785 Y67.167 E0.14690
G1 X90.256 Y70.368 E0.14939
G1 X90.114 Y70.437 E0.00496
G1 X90.036 Y70.454 E0.00249
G1 X89.878 Y70.447 E0.00496
G1 X89.731 Y70.390 E0.00496
G1 X89.611 Y70.287 E0.00496
G1 X89.530 Y70.152 E0.00496
G1 X89.497 Y69.997 E0.00496
G1 X89.500 Y69.918 E0.00249
G1 X89.546 Y69.766 E0.00496
G1 X89.647 Y69.626 E0.00541
G1 X93.050 Y66.524 E0.14439
G1 X96.736 Y63.740 E0.14484
M73 P0 R87
G1 X100.664 Y61.308 E0.14484
G1 X104.799 Y59.249 E0.14484
G1 X109.107 Y57.581 E0.14484
G1 X113.550 Y56.316 E0.14484
G1 X118.091 Y55.468 E0.14484
G1 X122.690 Y55.041 E0.14484
G1 X127.310 Y55.041 E0.14484
G1 X131.909 Y55.468 E0.14484
G1 X136.450 Y56.316 E0.14484
G1 X140.893 Y57.581 E0.14484
G1 X145.201 Y59.249 E0.14484
G1 X149.336 Y61.308 E0.14484
G1 X153.264 Y63.740 E0.14484
G1 X156.950 Y66.524 E0.14484
G1 X160.353 Y69.626 E0.14439
G1 X160.454 Y69.766 E0.00541
G1 X160.500 Y69.918 E0.00496
G1 X160.503 Y69.997 E0.00249
G1 X160.470 Y70.152 E0.00496
G1 X160.389 Y70.287 E0.00496
G1 X160.269 Y70.390 E0.00496
G1 X160.122 Y70.447 E0.00496
G1 X159.964 Y70.454 E0.00496
G1 X159.812 Y70.408 E0.00496
G1 X159.744 Y70.368 E0.00249
G1 X156.215 Y67.167 E0.14939
G1 X152.462 Y64.361 E0.14690
G1 X148.447 Y61.918 E0.14738
G1 X147.567 Y61.533 E0.03012
G1 X146.619 Y61.301 E0.03060
G1 X145.645 Y61.235 E0.03060
G1 X144.674 Y61.337 E0.03060
G1 X143.736 Y61.605 E0.03060
G1 X142.857 Y62.029 E0.03060
G1 X142.064 Y62.598 E0.03060
G1 X141.380 Y63.294 E0.03060
G1 X140.827 Y64.098 E0.03060
G1 X140.419 Y64.984 E0.03060
G1 X140.169 Y65.928 E0.03060
G1 X140.088 Y66.866 E0.02953
G1 X140.088 Y143.134 E2.39133
G1 X140.169 Y144.072 E0.02953
G1 X140.419 Y145.016 E0.03060
G1 X140.827 Y145.902 E0.03060
G1 X141.380 Y146.706 E0.03060
G1 X142.064 Y147.402 E0.03060
G1 X142.857 Y147.971 E0.03060
G1 X143.736 Y148.395 E0.03060
G1 X144.674 Y148.663 E0.03060
G1 X145.645 Y148.765 E0.03060
G1 X146.619 Y148.699 E0.03060
G1 X147.567 Y148.467 E0.03060
G1 X148.447 Y148.082 E0.03012
G1 X152.462 Y145.639 E0.14738
G1 X156.215 Y142.833 E0.14690
G1 X159.744 Y139.632 E0.14939
G1 X159.886 Y139.563 E0.00496
G1 X160.043 Y139.543 E0.00496
G1 X160.198 Y139.576 E0.00496
G1 X160.269 Y139.610 E0.00249
G1 X160.389 Y139.713 E0.00496
G1 X160.436 Y139.777 E0.00249
G1 X160.493 Y139.924 E0.00496
G1 X160.500 Y140.082 E0.00496
G1 X160.454 Y140.234 E0.00496
G1 X160.353 Y140.374 E0.00541
G1 X156.950 Y143.476 E0.14439
G1 X153.264 Y146.260 E0.14484
G1 X149.336 Y148.692 E0.14484
G1 X145.201 Y150.751 E0.14484
G1 X140.893 Y152.419 E0.14484
G1 X136.450 Y153.684 E0.14484
G1 X131.909 Y154.532 E0.14484
G1 X127.310 Y154.959 E0.14484
G1 X122.690 Y154.959 E0.14484
G1 X118.091 Y154.532 E0.14484
G1 X113.550 Y153.684 E0.14484
G1 X109.107 Y152.419 E0.14484
G1 X104.799 Y150.751 E0.14484
G1 X100.664 Y148.692 E0.14484
G1 X96.736 Y146.260 E0.14484
G1 X93.050 Y143.476 E0.14484
G1 X89.648 Y140.375 E0.14433
G1 X89.572 Y140.278 E0.00387
G1 X89.274 Y140.515 F10800.000
;TYPE:External perimeter
G1 F1200.000
G1 X89.199 Y140.386 E0.00469
G1 X89.148 Y140.245 E0.00469
G1 X89.122 Y140.098 E0.00469
G1 X89.122 Y139.948 E0.00469
G1 X89.148 Y139.801 E0.00469
G1 X89.199 Y139.660 E0.00469
G1 X89.274 Y139.531 E0.00469
G1 X89.370 Y139.416 E0.00469
G1 X89.485 Y139.320 E0.00469
G1 X89.614 Y139.245 E0.00469
G1 X89.755 Y139.194 E0.00469
G1 X89.902 Y139.168 E0.00469
G1 X90.052 Y139.168 E0.00469
G1 X90.199 Y139.194 E0.00469
G1 X90.340 Y139.245 E0.00469
G1 X90.469 Y139.320 E0.00469
G1 X90.605 Y139.434 E0.00556
G1 X94.026 Y142.542 E0.14490
G1 X97.749 Y145.326 E0.14577
G1 X101.728 Y147.746 E0.14602
G1 X102.555 Y148.108 E0.02831
G1 X103.439 Y148.325 E0.02855
G1 X104.348 Y148.386 E0.02855
G1 X105.254 Y148.291 E0.02855
G1 X106.130 Y148.042 E0.02855
G1 X106.950 Y147.646 E0.02855
G1 X107.690 Y147.115 E0.02855
G1 X108.328 Y146.465 E0.02855
G1 X108.845 Y145.715 E0.02855
G1 X109.225 Y144.888 E0.02855
G1 X109.458 Y144.007 E0.02855
G1 X109.535 Y143.118 E0.02800
G1 X109.535 Y66.882 E2.39031
M73 P1 R87
M73 Q1 S88
G1 X109.458 Y65.993 E0.02800
G1 X109.225 Y65.112 E0.02855
G1 X108.845 Y64.285 E0.02855
G1 X108.328 Y63.535 E0.02855
G1 X107.690 Y62.885 E0.02855
G1 X106.950 Y62.354 E0.02855
G1 X106.130 Y61.958 E0.02855
G1 X105.254 Y61.709 E0.02855
G1 X104.348 Y61.614 E0.02855
G1 X103.439 Y61.675 E0.02855
G1 X102.555 Y61.892 E0.02855
G1 X101.728 Y62.254 E0.02831
G1 X97.749 Y64.674 E0.14602
G1 X94.026 Y67.458 E0.14577
G1 X90.605 Y70.567 E0.14493
G1 X90.476 Y70.676 E0.00529
G1 X90.354 Y70.748 E0.00445
G1 X90.083 Y70.829 E0.00886
G1 X89.801 Y70.817 E0.00886
G1 X89.537 Y70.715 E0.00886
G1 X89.422 Y70.632 E0.00445
G1 X89.239 Y70.417 E0.00886
G1 X89.137 Y70.153 E0.00886
G1 X89.125 Y69.871 E0.00886
G1 X89.206 Y69.600 E0.00886
G1 X89.375 Y69.364 E0.00910
G1 X92.809 Y66.234 E0.14570
G1 X96.523 Y63.429 E0.14593
G1 X100.480 Y60.979 E0.14593
G1 X104.647 Y58.904 E0.14593
G1 X108.987 Y57.223 E0.14593
G1 X113.463 Y55.949 E0.14593
G1 X118.038 Y55.094 E0.14593
G1 X122.673 Y54.664 E0.14593
G1 X127.327 Y54.664 E0.14593
G1 X131.962 Y55.094 E0.14593
G1 X136.537 Y55.949 E0.14593
G1 X141.013 Y57.223 E0.14593
G1 X145.353 Y58.904 E0.14593
G1 X149.520 Y60.979 E0.14593
G1 X153.477 Y63.429 E0.14593
G1 X157.191 Y66.234 E0.14593
G1 X160.625 Y69.364 E0.14570
G1 X160.794 Y69.600 E0.00910
G1 X160.875 Y69.871 E0.00886
G1 X160.863 Y70.153 E0.00886
G1 X160.761 Y70.417 E0.00886
G1 X160.578 Y70.632 E0.00886
G1 X160.463 Y70.715 E0.00445
G1 X160.199 Y70.817 E0.00886
G1 X159.917 Y70.829 E0.00886
G1 X159.646 Y70.748 E0.00886
G1 X159.524 Y70.676 E0.00445
G1 X159.395 Y70.567 E0.00529
G1 X155.974 Y67.458 E0.14493
G1 X152.251 Y64.674 E0.14577
G1 X148.272 Y62.254 E0.14602
G1 X147.445 Y61.892 E0.02831
G1 X146.561 Y61.675 E0.02855
G1 X145.652 Y61.614 E0.02855
G1 X144.746 Y61.709 E0.02855
G1 X143.870 Y61.958 E0.02855
G1 X143.050 Y62.354 E0.02855
G1 X142.310 Y62.885 E0.02855
G1 X141.672 Y63.535 E0.02855
G1 X141.155 Y64.285 E0.02855
G1 X140.775 Y65.112 E0.02855
G1 X140.542 Y65.993 E0.02855
G1 X140.465 Y66.882 E0.02800
G1 X140.465 Y143.118 E2.39031
G1 X140.542 Y144.007 E0.02800
G1 X140.775 Y144.888 E0.02855
G1 X141.155 Y145.715 E0.02855
G1 X141.672 Y146.465 E0.02855
G1 X142.310 Y147.115 E0.02855
G1 X143.050 Y147.646 E0.02855
G1 X143.870 Y148.042 E0.02855
G1 X144.746 Y148.291 E0.02855
G1 X145.652 Y148.386 E0.02855
G1 X146.561 Y148.325 E0.02855
