; generated by PrusaSlicer 2.3.0+win64 on 2022-10-18 at 15:46:16 UTC

; 

; external perimeters extrusion width = 0.90mm
; perimeters extrusion width = 0.90mm
; infill extrusion width = 0.90mm
; solid infill extrusion width = 0.90mm
; top infill extrusion width = 0.80mm
; first layer extrusion width = 0.90mm

M73 P0 R85
M73 Q0 S85
M201 X1000 Y1000 Z200 E5000 ; sets maximum accelerations, mm/sec^2
M203 X200 Y200 Z12 E120 ; sets maximum feedrates, mm/sec
M204 P1250 R1250 T1250 ; sets acceleration (P, T) and retract acceleration (R), mm/sec^2
M205 X8.00 Y8.00 Z0.40 E4.50 ; sets the jerk limits, mm/sec
M205 S0 T0 ; sets the minimum extruding and travel feed rate, mm/sec
M107
;TYPE:Custom
M862.3 P "MK3S" ; printer model check
M115 U3.9.2 ; tell printer latest fw version
G90 ; use absolute coordinates
M83 ; extruder relative mode
M104 S220 ; set extruder temp
M140 S60 ; set bed temp
M190 S60 ; wait for bed temp
M109 S220 ; wait for extruder temp
G28 W ; home all without mesh bed level
G80 ; mesh bed leveling
G1 Y-3.0 F1000.0 ; go outside print area
G92 E0.0
G1 X60.0 E9.0 F1000.0 ; intro line
G1 X100.0 E12.5 F1000.0 ; intro line
G92 E0.0
M221 S95
G21 ; set units to millimeters
G90 ; use absolute coordinates
M83 ; use relative distances for extrusion
M900 K0.01 ; Filament gcode LA 1.5
; ; Filament gcode LA 1.0
;LAYER_CHANGE
;Z:0.3
;HEIGHT:0.3
;BEFORE_LAYER_CHANGE
G92 E0.0
;0.3


G1 E-1.00000 F2100.000
G1 Z0.400 F10800.000
;AFTER_LAYER_CHANGE
;0.3
G1 X83.716 Y26.488
G1 Z0.300
G1 E1.00000 F2100.000
M204 S1000
;TYPE:Skirt
;WIDTH:0.9
G1 F1200.000
G1 X84.414 Y25.003 E0.17096
G1 X85.263 Y23.761 E0.15685
G1 X86.766 Y22.216 E0.22460
G1 X88.136 Y21.262 E0.17399
G1 X89.532 Y20.593 E0.16139
G1 X91.173 Y20.107 E0.17840
G1 X91.802 Y19.996 E0.06649
G1 X93.244 Y19.884 E0.15080
G1 X156.755 Y19.884 E6.61926
M73 P0 R84
G1 X158.532 Y20.042 E0.18596
G1 X160.292 Y20.520 E0.19006
G1 X161.909 Y21.288 E0.18654
G1 X163.515 Y22.465 E0.20756
G1 X164.753 Y23.783 E0.18842
G1 X165.571 Y24.976 E0.15081
G1 X166.197 Y26.286 E0.15131
G1 X166.761 Y28.196 E0.20754
G1 X166.929 Y29.847 E0.17294
G1 X166.936 Y179.945 E15.64366
G1 X166.777 Y181.722 E0.18596
G1 X166.284 Y183.512 E0.19357
G1 X165.583 Y185.001 E0.17147
G1 X164.708 Y186.279 E0.16138
G1 X163.534 Y187.517 E0.17790
G1 X163.061 Y187.916 E0.06448
G1 X161.801 Y188.775 E0.15886
G1 X160.234 Y189.501 E0.18002
G1 X158.567 Y189.952 E0.18002
G1 X157.046 Y190.104 E0.15936
G1 X93.211 Y190.115 E6.65302
G1 X91.454 Y189.956 E0.18395
G1 X89.668 Y189.464 E0.19307
G1 X88.175 Y188.761 E0.17198
G1 X86.898 Y187.886 E0.16138
G1 X85.660 Y186.710 E0.17790
G1 X85.247 Y186.217 E0.06699
G1 X84.401 Y184.973 E0.15684
G1 X83.667 Y183.383 E0.18253
G1 X83.223 Y181.719 E0.17952
G1 X83.067 Y180.071 E0.17246
G1 X83.064 Y30.055 E15.63509
G1 X83.223 Y28.278 E0.18596
G1 X83.684 Y26.603 E0.18107
; printing object left receiver plate.STL id:0 copy 0
;WIPE_START
G1 F8640.000
G1 X84.414 Y25.003 E-0.40609
G1 X85.263 Y23.761 E-0.34749
G1 X85.856 Y23.151 E-0.19641
;WIPE_END
G1 E-0.05000 F2100.000
G1 Z0.700 F10800.000
G1 X123.335 Y120.744
G1 Z0.300
G1 E1.00000 F2100.000
;TYPE:Perimeter
G1 F1200.000
G1 X124.154 Y120.524 E0.08847
G1 X124.963 Y120.454 E0.08463
G1 X125.840 Y120.523 E0.09169
G1 X126.665 Y120.744 E0.08903
G1 X127.435 Y121.103 E0.08847
G1 X128.130 Y121.590 E0.08847
G1 X128.730 Y122.190 E0.08846
G1 X129.217 Y122.885 E0.08847
G1 X129.576 Y123.655 E0.08847
G1 X129.796 Y124.474 E0.08847
G1 X129.869 Y125.320 E0.08847
G1 X129.796 Y126.166 E0.08847
G1 X129.576 Y126.985 E0.08846
G1 X129.217 Y127.755 E0.08847
G1 X128.730 Y128.450 E0.08846
G1 X128.130 Y129.050 E0.08846
G1 X127.435 Y129.537 E0.08847
G1 X126.665 Y129.896 E0.08846
G1 X125.846 Y130.116 E0.08846
G1 X125.000 Y130.189 E0.08847
G1 X124.154 Y130.116 E0.08847
G1 X123.335 Y129.896 E0.08846
G1 X122.565 Y129.537 E0.08846
G1 X121.870 Y129.050 E0.08847
G1 X121.296 Y128.476 E0.08463
G1 X120.785 Y127.760 E0.09169
G1 X120.424 Y126.985 E0.08903
G1 X120.204 Y126.166 E0.08846
G1 X120.131 Y125.320 E0.08847
G1 X120.204 Y124.474 E0.08847
G1 X120.424 Y123.655 E0.08847
G1 X120.783 Y122.885 E0.08847
G1 X121.270 Y122.190 E0.08847
G1 X121.870 Y121.590 E0.08846
G1 X122.565 Y121.103 E0.08846
G1 X123.226 Y120.795 E0.07596
G1 X123.579 Y121.552 F10800.000
;TYPE:External perimeter
G1 F1200.000
G1 X124.300 Y121.351 E0.07804
G1 X124.967 Y121.292 E0.06976
G1 X125.698 Y121.350 E0.07645
G1 X126.379 Y121.532 E0.07342
G1 X127.015 Y121.829 E0.07323
G1 X127.591 Y122.232 E0.07323
G1 X128.088 Y122.729 E0.07323
G1 X128.491 Y123.305 E0.07323
G1 X128.788 Y123.941 E0.07323
G1 X128.969 Y124.620 E0.07323
G1 X129.031 Y125.320 E0.07323
G1 X128.969 Y126.020 E0.07323
G1 X128.788 Y126.699 E0.07323
G1 X128.491 Y127.335 E0.07323
G1 X128.088 Y127.911 E0.07323
G1 X127.591 Y128.408 E0.07323
G1 X127.015 Y128.811 E0.07323
G1 X126.379 Y129.108 E0.07323
G1 X125.700 Y129.289 E0.07323
G1 X125.000 Y129.351 E0.07323
G1 X124.300 Y129.289 E0.07323
G1 X123.621 Y129.108 E0.07323
G1 X122.985 Y128.811 E0.07323
G1 X122.409 Y128.408 E0.07323
G1 X121.936 Y127.934 E0.06976
G1 X121.510 Y127.337 E0.07645
G1 X121.212 Y126.699 E0.07342
G1 X121.031 Y126.020 E0.07323
G1 X120.969 Y125.320 E0.07323
G1 X121.031 Y124.620 E0.07323
G1 X121.212 Y123.941 E0.07323
G1 X121.509 Y123.305 E0.07323
G1 X121.912 Y122.729 E0.07323
G1 X122.409 Y122.232 E0.07323
G1 X122.985 Y121.829 E0.07323
G1 X123.470 Y121.603 E0.05583
G1 X123.703 Y120.814 F10800.000
;WIPE_START
G1 F8640.000
G1 X124.300 Y121.351 E-0.20029
G1 X124.967 Y121.292 E-0.15454
G1 X125.698 Y121.350 E-0.16938
G1 X126.379 Y121.532 E-0.16267
G1 X127.015 Y121.829 E-0.16223
G1 X127.373 Y122.080 E-0.10089
;WIPE_END
G1 E-0.05000 F2100.000
G1 Z0.700 F10800.000
G1 X147.924 Y107.149
G1 Z0.300
G1 E1.00000 F2100.000
;TYPE:Perimeter
G1 F1200.000
G1 X147.623 Y106.502 E0.07444
G1 X147.414 Y105.752 E0.08107
G1 X147.349 Y105.000 E0.07870
G1 X147.414 Y104.254 E0.07808
G1 X147.608 Y103.530 E0.07808
G1 X147.924 Y102.851 E0.07808
G1 X148.354 Y102.238 E0.07808
G1 X148.884 Y101.708 E0.07808
G1 X149.498 Y101.278 E0.07808
G1 X150.177 Y100.961 E0.07808
G1 X150.900 Y100.768 E0.07808
G1 X151.612 Y100.705 E0.07444
G1 X152.387 Y100.766 E0.08107
G1 X153.117 Y100.961 E0.07870
G1 X153.796 Y101.278 E0.07808
G1 X154.409 Y101.708 E0.07808
G1 X154.939 Y102.238 E0.07808
G1 X155.369 Y102.851 E0.07808
G1 X155.685 Y103.530 E0.07808
G1 X155.879 Y104.254 E0.07808
G1 X155.945 Y105.000 E0.07808
G1 X155.879 Y105.747 E0.07808
G1 X155.685 Y106.470 E0.07808
G1 X155.369 Y107.149 E0.07808
G1 X154.939 Y107.763 E0.07808
G1 X154.409 Y108.293 E0.07808
G1 X153.796 Y108.722 E0.07808
G1 X153.117 Y109.039 E0.07808
G1 X152.393 Y109.233 E0.07808
G1 X151.647 Y109.298 E0.07808
G1 X150.900 Y109.233 E0.07808
G1 X150.177 Y109.039 E0.07808
G1 X149.498 Y108.722 E0.07808
G1 X148.884 Y108.293 E0.07808
G1 X148.354 Y107.763 E0.07808
G1 X147.993 Y107.248 E0.06558
G1 X148.678 Y106.768 F10800.000
;TYPE:External perimeter
G1 F1200.000
G1 X148.409 Y106.212 E0.06442
G1 X148.240 Y105.603 E0.06583
G1 X148.187 Y105.000 E0.06306
G1 X148.240 Y104.400 E0.06284
G1 X148.396 Y103.817 E0.06284
G1 X148.651 Y103.271 E0.06284
G1 X148.997 Y102.777 E0.06284
G1 X149.423 Y102.350 E0.06284
G1 X149.917 Y102.005 E0.06284
G1 X150.463 Y101.750 E0.06284
G1 X151.046 Y101.594 E0.06284
G1 X151.616 Y101.544 E0.05960
G1 X152.245 Y101.593 E0.06583
G1 X152.830 Y101.750 E0.06306
G1 X153.376 Y102.005 E0.06284
G1 X153.870 Y102.350 E0.06284
G1 X154.296 Y102.777 E0.06284
G1 X154.642 Y103.271 E0.06284
G1 X154.897 Y103.817 E0.06284
G1 X155.053 Y104.400 E0.06284
G1 X155.106 Y105.000 E0.06284
G1 X155.053 Y105.601 E0.06284
G1 X154.897 Y106.183 E0.06284
G1 X154.642 Y106.730 E0.06284
G1 X154.296 Y107.224 E0.06284
G1 X153.870 Y107.650 E0.06284
G1 X153.376 Y107.996 E0.06284
G1 X152.830 Y108.251 E0.06284
G1 X152.247 Y108.407 E0.06284
G1 X151.647 Y108.459 E0.06284
G1 X151.046 Y108.407 E0.06284
G1 X150.463 Y108.251 E0.06284
G1 X149.917 Y107.996 E0.06284
G1 X149.423 Y107.650 E0.06284
G1 X148.997 Y107.224 E0.06284
G1 X148.747 Y106.867 E0.04545
G1 X148.060 Y106.774 F10800.000
;WIPE_START
G1 F8640.000
G1 X148.409 Y106.212 E-0.17012
G1 X148.240 Y105.603 E-0.14584
G1 X148.187 Y105.000 E-0.13971
G1 X148.240 Y104.400 E-0.13923
G1 X148.396 Y103.817 E-0.13923
G1 X148.651 Y103.271 E-0.13923
G1 X148.841 Y102.999 E-0.07664
;WIPE_END
G1 E-0.05000 F2100.000
G1 Z0.700 F10800.000
G1 X134.265 Y87.917
G1 Z0.300
G1 E1.00000 F2100.000
;TYPE:Perimeter
G1 F1200.000
G1 X133.802 Y88.241 E0.05888
G1 X133.298 Y88.476 E0.05798
G1 X132.761 Y88.620 E0.05798
G1 X132.207 Y88.669 E0.05798
G1 X131.653 Y88.620 E0.05798
G1 X131.115 Y88.476 E0.05798
G1 X130.611 Y88.241 E0.05798
G1 X130.155 Y87.922 E0.05798
G1 X129.762 Y87.529 E0.05798
G1 X129.443 Y87.073 E0.05798
G1 X129.223 Y86.602 E0.05418
G1 X129.065 Y86.040 E0.06083
G1 X129.015 Y85.477 E0.05888
G1 X129.064 Y84.923 E0.05798
G1 X129.208 Y84.386 E0.05798
G1 X129.443 Y83.882 E0.05798
G1 X129.762 Y83.426 E0.05798
G1 X130.155 Y83.033 E0.05798
G1 X130.611 Y82.714 E0.05798
G1 X131.115 Y82.478 E0.05798
G1 X131.653 Y82.334 E0.05798
G1 X132.171 Y82.289 E0.05418
G1 X132.753 Y82.332 E0.06083
G1 X133.298 Y82.478 E0.05888
G1 X133.802 Y82.714 E0.05798
G1 X134.258 Y83.033 E0.05798
G1 X134.651 Y83.426 E0.05798
G1 X134.971 Y83.882 E0.05798
G1 X135.206 Y84.386 E0.05798
G1 X135.350 Y84.923 E0.05798
G1 X135.398 Y85.477 E0.05798
G1 X135.350 Y86.031 E0.05798
G1 X135.206 Y86.569 E0.05798
G1 X134.971 Y87.073 E0.05798
G1 X134.672 Y87.499 E0.05418
G1 X134.349 Y87.831 E0.04832
G1 X133.750 Y87.248 F10800.000
;TYPE:External perimeter
G1 F1200.000
G1 X133.383 Y87.515 E0.04728
G1 X133.011 Y87.688 E0.04274
G1 X132.615 Y87.794 E0.04274
G1 X132.207 Y87.830 E0.04274
G1 X131.798 Y87.794 E0.04274
G1 X131.402 Y87.688 E0.04274
G1 X131.031 Y87.515 E0.04274
G1 X130.695 Y87.279 E0.04274
G1 X130.405 Y86.989 E0.04274
G1 X130.169 Y86.654 E0.04274
G1 X130.009 Y86.310 E0.03953
G1 X129.890 Y85.889 E0.04559
G1 X129.854 Y85.477 E0.04306
G1 X129.890 Y85.069 E0.04274
G1 X129.996 Y84.673 E0.04274
G1 X130.169 Y84.301 E0.04274
G1 X130.405 Y83.965 E0.04274
G1 X130.695 Y83.675 E0.04274
G1 X131.031 Y83.440 E0.04274
G1 X131.402 Y83.267 E0.04274
G1 X131.798 Y83.161 E0.04274
G1 X132.176 Y83.127 E0.03953
G1 X132.612 Y83.160 E0.04559
G1 X133.011 Y83.267 E0.04306
G1 X133.383 Y83.440 E0.04274
G1 X133.719 Y83.675 E0.04274
G1 X134.009 Y83.965 E0.04274
G1 X134.244 Y84.301 E0.04274
G1 X134.417 Y84.673 E0.04274
G1 X134.524 Y85.069 E0.04274
G1 X134.559 Y85.477 E0.04274
G1 X134.524 Y85.886 E0.04274
G1 X134.417 Y86.282 E0.04274
G1 X134.244 Y86.654 E0.04274
G1 X134.027 Y86.964 E0.03953
G1 X133.834 Y87.162 E0.02878
G1 X133.835 Y87.694 F10800.000
;WIPE_START
G1 F8640.000
G1 X133.383 Y87.515 E-0.13214
G1 X133.011 Y87.688 E-0.09468
G1 X132.615 Y87.794 E-0.09469
G1 X132.207 Y87.830 E-0.09468
G1 X131.798 Y87.794 E-0.09468
G1 X131.402 Y87.688 E-0.09469
G1 X131.031 Y87.515 E-0.09468
G1 X130.695 Y87.279 E-0.09468
G1 X130.405 Y86.989 E-0.09469
G1 X130.255 Y86.775 E-0.06038
;WIPE_END
G1 E-0.05000 F2100.000
G1 Z0.700 F10800.000
G1 X117.623 Y82.906
G1 Z0.300
G1 E1.00000 F2100.000
;TYPE:Perimeter
G1 F1200.000
G1 X117.479 Y83.443 E0.05798
G1 X117.244 Y83.947 E0.05798
G1 X116.946 Y84.373 E0.05418
G1 X116.539 Y84.791 E0.06083
G1 X116.076 Y85.115 E0.05888
G1 X115.572 Y85.350 E0.05798
G1 X115.034 Y85.494 E0.05798
G1 X114.480 Y85.543 E0.05798
G1 X113.926 Y85.494 E0.05798
G1 X113.389 Y85.350 E0.05798
G1 X112.885 Y85.115 E0.05798
G1 X112.429 Y84.796 E0.05798
G1 X112.036 Y84.403 E0.05798
G1 X111.716 Y83.947 E0.05798
G1 X111.497 Y83.476 E0.05418
G1 X111.338 Y82.914 E0.06083
G1 X111.289 Y82.352 E0.05888
G1 X111.337 Y81.797 E0.05798
G1 X111.481 Y81.260 E0.05798
G1 X111.716 Y80.756 E0.05798
G1 X112.036 Y80.300 E0.05798
G1 X112.429 Y79.907 E0.05798
G1 X112.885 Y79.588 E0.05798
G1 X113.389 Y79.353 E0.05798
G1 X113.926 Y79.209 E0.05798
G1 X114.444 Y79.164 E0.05418
G1 X115.026 Y79.207 E0.06083
G1 X115.572 Y79.353 E0.05888
G1 X116.076 Y79.588 E0.05798
G1 X116.532 Y79.907 E0.05798
G1 X116.925 Y80.300 E0.05798
G1 X117.244 Y80.756 E0.05798
G1 X117.479 Y81.260 E0.05798
G1 X117.623 Y81.797 E0.05798
G1 X117.672 Y82.352 E0.05798
G1 X117.634 Y82.786 E0.04547
G1 X116.801 Y82.713 F10800.000
;TYPE:External perimeter
G1 F1200.000
G1 X116.691 Y83.156 E0.04756
G1 X116.518 Y83.528 E0.04274
G1 X116.300 Y83.839 E0.03953
G1 X115.995 Y84.152 E0.04559
G1 X115.656 Y84.389 E0.04306
G1 X115.285 Y84.562 E0.04274
G1 X114.889 Y84.668 E0.04274
G1 X114.480 Y84.704 E0.04274
G1 X114.072 Y84.668 E0.04274
G1 X113.676 Y84.562 E0.04274
G1 X113.304 Y84.389 E0.04274
G1 X112.968 Y84.154 E0.04274
G1 X112.678 Y83.864 E0.04274
G1 X112.443 Y83.528 E0.04274
G1 X112.283 Y83.184 E0.03953
G1 X112.164 Y82.763 E0.04559
G1 X112.128 Y82.352 E0.04306
G1 X112.163 Y81.943 E0.04274
G1 X112.270 Y81.547 E0.04274
G1 X112.443 Y81.175 E0.04274
G1 X112.678 Y80.839 E0.04274
G1 X112.968 Y80.550 E0.04274
G1 X113.304 Y80.314 E0.04274
G1 X113.676 Y80.141 E0.04274
G1 X114.072 Y80.035 E0.04274
G1 X114.450 Y80.002 E0.03953
G1 X114.886 Y80.034 E0.04559
G1 X115.285 Y80.141 E0.04306
G1 X115.656 Y80.314 E0.04274
G1 X115.992 Y80.550 E0.04274
G1 X116.282 Y80.839 E0.04274
G1 X116.518 Y81.175 E0.04274
G1 X116.691 Y81.547 E0.04274
G1 X116.797 Y81.943 E0.04274
G1 X116.833 Y82.352 E0.04274
G1 X116.812 Y82.594 E0.02534
G1 X117.155 Y83.002 F10800.000
;WIPE_START
G1 F8640.000
G1 X116.691 Y83.156 E-0.13281
G1 X116.518 Y83.528 E-0.09468
G1 X116.300 Y83.839 E-0.08758
G1 X115.995 Y84.152 E-0.10100
G1 X115.656 Y84.389 E-0.09539
G1 X115.285 Y84.562 E-0.09468
G1 X114.889 Y84.668 E-0.09469
G1 X114.480 Y84.704 E-0.09468
G1 X114.072 Y84.668 E-0.09468
G1 X113.822 Y84.601 E-0.05980
;WIPE_END
G1 E-0.05000 F2100.000
M73 Q0 S84
G1 Z0.700 F10800.000
G1 X117.921 Y80.460
G1 Z0.300
G1 E1.00000 F2100.000
;TYPE:Perimeter
G1 F1200.000
G1 X116.997 Y79.141 E0.16789
G1 X116.316 Y77.681 E0.16789
G1 X115.899 Y76.125 E0.16789
G1 X115.759 Y74.520 E0.16789
G1 X115.899 Y72.915 E0.16789
G1 X116.316 Y71.359 E0.16789
G1 X116.997 Y69.899 E0.16789
G1 X117.921 Y68.580 E0.16789
G1 X119.060 Y67.441 E0.16789
G1 X120.379 Y66.517 E0.16789
G1 X121.839 Y65.836 E0.16789
G1 X123.395 Y65.419 E0.16789
G1 X124.947 Y65.283 E0.16234
G1 X126.601 Y65.418 E0.17296
G1 X128.161 Y65.836 E0.16829
G1 X129.621 Y66.517 E0.16789
G1 X130.940 Y67.441 E0.16789
G1 X132.079 Y68.580 E0.16789
G1 X133.003 Y69.899 E0.16789
G1 X133.684 Y71.359 E0.16789
G1 X134.101 Y72.915 E0.16789
G1 X134.241 Y74.520 E0.16789
G1 X134.101 Y76.125 E0.16789
G1 X133.684 Y77.681 E0.16789
G1 X133.003 Y79.141 E0.16789
G1 X132.079 Y80.460 E0.16789
G1 X130.940 Y81.599 E0.16789
G1 X129.621 Y82.523 E0.16789
G1 X128.161 Y83.204 E0.16789
G1 X126.605 Y83.621 E0.16789
G1 X125.000 Y83.761 E0.16789
G1 X123.395 Y83.621 E0.16789
G1 X121.839 Y83.204 E0.16789
G1 X120.379 Y82.523 E0.16789
G1 X119.060 Y81.599 E0.16789
G1 X118.006 Y80.545 E0.15538
G1 X118.596 Y79.954 F10800.000
;TYPE:External perimeter
G1 F1200.000
G1 X117.723 Y78.721 E0.15747
G1 X117.104 Y77.394 E0.15265
G1 X116.725 Y75.979 E0.15265
G1 X116.598 Y74.520 E0.15265
G1 X116.725 Y73.061 E0.15265
G1 X117.104 Y71.646 E0.15265
G1 X117.723 Y70.319 E0.15265
G1 X118.563 Y69.119 E0.15265
G1 X119.599 Y68.083 E0.15265
G1 X120.799 Y67.243 E0.15265
G1 X122.126 Y66.624 E0.15265
G1 X123.541 Y66.245 E0.15265
G1 X124.949 Y66.122 E0.14736
G1 X126.458 Y66.245 E0.15772
G1 X127.874 Y66.624 E0.15279
G1 X129.201 Y67.243 E0.15265
G1 X130.401 Y68.083 E0.15265
G1 X131.437 Y69.119 E0.15265
G1 X132.277 Y70.319 E0.15265
G1 X132.896 Y71.646 E0.15265
G1 X133.275 Y73.061 E0.15265
G1 X133.402 Y74.520 E0.15265
G1 X133.275 Y75.979 E0.15265
G1 X132.896 Y77.394 E0.15265
G1 X132.277 Y78.721 E0.15265
G1 X131.437 Y79.921 E0.15265
G1 X130.401 Y80.957 E0.15265
G1 X129.201 Y81.797 E0.15265
G1 X127.874 Y82.416 E0.15265
G1 X126.459 Y82.795 E0.15265
G1 X125.000 Y82.922 E0.15265
G1 X123.541 Y82.795 E0.15265
G1 X122.126 Y82.416 E0.15265
G1 X120.799 Y81.797 E0.15265
G1 X119.599 Y80.957 E0.15265
G1 X118.681 Y80.039 E0.13526
G1 X117.809 Y80.096 F10800.000
;WIPE_START
G1 F8640.000
G1 X117.723 Y78.721 E-0.37620
G1 X117.104 Y77.394 E-0.33819
G1 X116.840 Y76.408 E-0.23561
;WIPE_END
