; generated by PrusaSlicer 2.3.0+win64 on 2022-10-28 at 15:46:15 UTC

; 

; external perimeters extrusion width = 0.45mm
; perimeters extrusion width = 0.45mm
; infill extrusion width = 0.45mm
; solid infill extrusion width = 0.45mm
; top infill extrusion width = 0.40mm
; first layer extrusion width = 0.42mm

M73 P0 R14
M73 Q0 S14
M201 X1000 Y1000 Z200 E5000 ; sets maximum accelerations, mm/sec^2
M203 X200 Y200 Z12 E120 ; sets maximum feedrates, mm/sec
M204 P1250 R1250 T1250 ; sets acceleration (P, T) and retract acceleration (R), mm/sec^2
M205 X8.00 Y8.00 Z0.40 E4.50 ; sets the jerk limits, mm/sec
M205 S0 T0 ; sets the minimum extruding and travel feed rate, mm/sec
M107
;TYPE:Custom
M862.3 P "MK3" ; printer model check
M862.1 P0.4 ; nozzle diameter check
M115 U3.9.2 ; tell printer latest fw version
G90 ; use absolute coordinates
M83 ; extruder relative mode
M104 S215 ; set extruder temp
M140 S60 ; set bed temp
M190 S60 ; wait for bed temp
M109 S215 ; wait for extruder temp
G28 W ; home all without mesh bed level
G80 ; mesh bed leveling
G1 Y-3.0 F1000.0 ; go outside print area
G92 E0.0
G1 X60.0 E9.0 F1000.0 ; intro line
G1 X100.0 E12.5 F1000.0 ; intro line
G92 E0.0
M221 S95

; Don't change E values below. Excessive value can damage the printer.
M907 E430 ; set extruder motor current
G21 ; set units to millimeters
G90 ; use absolute coordinates
M83 ; use relative distances for extrusion
M900 K0.05 ; Filament gcode LA 1.5
M900 K30 ; Filament gcode LA 1.0
;LAYER_CHANGE
;Z:0.2
;HEIGHT:0.2
;BEFORE_LAYER_CHANGE
G92 E0.0
;0.2


G1 E-0.80000 F2100.000
G1 Z0.400 F10800.000
;AFTER_LAYER_CHANGE
;0.2
G1 X108.673 Y91.138
G1 Z0.200
G1 E0.80000 F2100.000
M204 S1000
;TYPE:Skirt
;WIDTH:0.42
G1 F1200.000
G1 X110.150 Y89.566 E0.06762
G1 X111.770 Y88.154 E0.06738
G1 X113.528 Y86.911 E0.06750
G1 X115.401 Y85.849 E0.06750
G1 X117.368 Y84.983 E0.06738
G1 X119.419 Y84.316 E0.06762
G1 X121.519 Y83.860 E0.06738
G1 X123.658 Y83.616 E0.06750
G1 X125.731 Y83.586 E0.06500
G1 X127.955 Y83.776 E0.07001
M73 Q1 S14
G1 X130.070 Y84.178 E0.06750
G1 X132.138 Y84.792 E0.06762
G1 X134.126 Y85.608 E0.06738
M73 P1 R14
G1 X136.029 Y86.622 E0.06762
G1 X137.818 Y87.821 E0.06750
G1 X139.477 Y89.192 E0.06750
G1 X140.968 Y90.698 E0.06643
G1 X143.222 Y93.708 E0.11789
G1 X144.258 Y95.581 E0.06713
G1 X145.120 Y97.599 E0.06879
G1 X145.758 Y99.638 E0.06700
G1 X146.193 Y101.762 E0.06796
G1 X146.412 Y103.914 E0.06784
G1 X146.412 Y106.078 E0.06784
G1 X146.193 Y108.238 E0.06808
G1 X145.758 Y110.361 E0.06796
G1 X145.110 Y112.430 E0.06796
G1 X144.271 Y114.391 E0.06689
G1 X143.031 Y116.567 E0.07852
G1 X141.039 Y119.220 E0.10403
G1 X139.457 Y120.826 E0.07071
G1 X137.817 Y122.180 E0.06667
G1 X136.028 Y123.378 E0.06750
G1 X134.132 Y124.389 E0.06738
G1 X132.140 Y125.207 E0.06750
G1 X130.077 Y125.820 E0.06750
G1 X127.962 Y126.223 E0.06750
G1 X125.817 Y126.412 E0.06750
G1 X123.699 Y126.387 E0.06643
G1 X121.525 Y126.141 E0.06858
G1 X119.421 Y125.685 E0.06750
G1 X117.374 Y125.019 E0.06750
G1 X115.410 Y124.155 E0.06726
G1 X113.530 Y123.091 E0.06774
G1 X111.776 Y121.850 E0.06738
G1 X110.152 Y120.436 E0.06750
G1 X108.751 Y118.949 E0.06404
G1 X107.373 Y117.164 E0.07072
G1 X106.295 Y115.425 E0.06416
G1 X105.250 Y113.274 E0.07497
G1 X104.550 Y111.358 E0.06395
G1 X104.014 Y109.265 E0.06774
G1 X103.693 Y107.144 E0.06727
G1 X103.588 Y104.887 E0.07084
G1 X103.694 Y102.844 E0.06416
G1 X104.018 Y100.715 E0.06750
G1 X104.553 Y98.634 E0.06738
G1 X105.296 Y96.609 E0.06762
G1 X106.236 Y94.676 E0.06738
G1 X107.367 Y92.844 E0.06750
G1 X108.637 Y91.186 E0.06550
; printing object rigging pog 2.STL id:0 copy 0
;WIPE_START
G1 F8640.000
G1 X110.150 Y89.566 E-0.51178
G1 X110.960 Y88.860 E-0.24822
;WIPE_END
G1 E-0.04000 F2100.000
G1 Z0.600 F10800.000
G1 X111.495 Y100.368
G1 Z0.200
G1 E0.80000 F2100.000
;TYPE:Perimeter
G1 F1200.000
G1 X112.312 Y100.297 E0.02571
G1 X113.129 Y100.368 E0.02571
G1 X113.921 Y100.580 E0.02571
G1 X114.664 Y100.927 E0.02571
G1 X115.335 Y101.397 E0.02571
G1 X115.915 Y101.977 E0.02571
G1 X116.385 Y102.648 E0.02571
G1 X116.559 Y103.020 E0.01285
G1 X116.732 Y103.391 E0.01285
G1 X116.944 Y104.183 E0.02571
G1 X117.015 Y105.000 E0.02571
G1 X116.944 Y105.817 E0.02571
G1 X116.732 Y106.609 E0.02571
G1 X116.385 Y107.352 E0.02571
G1 X115.915 Y108.023 E0.02571
G1 X115.335 Y108.603 E0.02571
G1 X114.664 Y109.073 E0.02571
G1 X113.921 Y109.420 E0.02571
G1 X113.129 Y109.632 E0.02571
G1 X112.312 Y109.703 E0.02571
G1 X111.495 Y109.632 E0.02571
G1 X110.704 Y109.420 E0.02571
G1 X109.961 Y109.073 E0.02571
G1 X109.289 Y108.603 E0.02571
G1 X108.709 Y108.023 E0.02571
G1 X108.239 Y107.352 E0.02571
G1 X107.893 Y106.609 E0.02571
G1 X107.680 Y105.817 E0.02571
G1 X107.609 Y105.000 E0.02571
G1 X107.680 Y104.183 E0.02571
G1 X107.893 Y103.391 E0.02571
G1 X108.239 Y102.648 E0.02571
G1 X108.709 Y101.977 E0.02571
G1 X109.289 Y101.397 E0.02571
G1 X109.961 Y100.927 E0.02571
G1 X110.704 Y100.580 E0.02571
G1 X111.438 Y100.384 E0.02382
G1 X111.535 Y100.748 F10800.000
;TYPE:External perimeter
G1 F1200.000
G1 X112.312 Y100.675 E0.02447
G1 X113.063 Y100.741 E0.02364
G1 X113.791 Y100.936 E0.02364
G1 X114.475 Y101.255 E0.02364
G1 X115.092 Y101.687 E0.02364
G1 X115.625 Y102.220 E0.02364
G1 X116.058 Y102.838 E0.02364
G1 X116.217 Y103.179 E0.01182
G1 X116.376 Y103.521 E0.01182
G1 X116.571 Y104.249 E0.02364
G1 X116.637 Y105.000 E0.02364
G1 X116.571 Y105.751 E0.02364
G1 X116.376 Y106.479 E0.02364
G1 X116.058 Y107.162 E0.02364
G1 X115.625 Y107.780 E0.02364
G1 X115.092 Y108.313 E0.02364
G1 X114.475 Y108.745 E0.02364
G1 X113.791 Y109.064 E0.02364
G1 X113.063 Y109.259 E0.02364
G1 X112.312 Y109.325 E0.02364
G1 X111.561 Y109.259 E0.02364
G1 X110.833 Y109.064 E0.02364
G1 X110.150 Y108.745 E0.02364
G1 X109.532 Y108.313 E0.02364
M73 Q2 S14
G1 X108.999 Y107.780 E0.02364
G1 X108.567 Y107.162 E0.02364
G1 X108.248 Y106.479 E0.02364
G1 X108.053 Y105.751 E0.02364
G1 X107.987 Y105.000 E0.02364
G1 X108.053 Y104.249 E0.02364
G1 X108.248 Y103.521 E0.02364
G1 X108.567 Y102.838 E0.02364
M73 P2 R14
G1 X108.999 Y102.220 E0.02364
G1 X109.532 Y101.687 E0.02364
G1 X110.150 Y101.255 E0.02364
G1 X110.833 Y100.936 E0.02364
G1 X111.477 Y100.763 E0.02091
G1 X111.670 Y100.371 F10800.000
;WIPE_START
G1 F8640.000
G1 X112.312 Y100.675 E-0.19388
G1 X113.063 Y100.741 E-0.17407
G1 X113.791 Y100.936 E-0.17407
G1 X114.475 Y101.255 E-0.17407
G1 X114.630 Y101.364 E-0.04391
;WIPE_END
G1 E-0.04000 F2100.000
G1 Z0.600 F10800.000
G1 X138.374 Y92.573
G1 Z0.200
G1 E0.80000 F2100.000
;TYPE:Perimeter
G1 F1200.000
G1 X133.393 Y92.579 E0.15616
G1 X133.086 Y92.214 E0.01496
G1 X132.752 Y91.944 E0.01347
G1 X132.377 Y91.735 E0.01347
G1 X131.971 Y91.594 E0.01347
G1 X131.547 Y91.525 E0.01347
G1 X131.118 Y91.530 E0.01347
G1 X130.695 Y91.609 E0.01347
G1 X130.293 Y91.760 E0.01347
G1 X129.923 Y91.978 E0.01347
G1 X129.596 Y92.256 E0.01347
G1 X129.321 Y92.587 E0.01347
G1 X129.108 Y92.959 E0.01347
G1 X128.962 Y93.364 E0.01347
G1 X128.888 Y93.787 E0.01347
G1 X128.888 Y94.216 E0.01347
G1 X128.962 Y94.639 E0.01347
G1 X129.108 Y95.043 E0.01347
G1 X129.321 Y95.416 E0.01347
G1 X129.596 Y95.747 E0.01347
G1 X129.923 Y96.025 E0.01347
G1 X130.293 Y96.243 E0.01347
G1 X130.695 Y96.394 E0.01347
G1 X131.118 Y96.473 E0.01347
G1 X131.547 Y96.478 E0.01347
G1 X131.971 Y96.409 E0.01347
G1 X132.377 Y96.268 E0.01347
G1 X132.752 Y96.059 E0.01347
G1 X133.086 Y95.789 E0.01347
G1 X133.394 Y95.424 E0.01498
G1 X140.557 Y95.424 E0.22460
G1 X141.413 Y96.968 E0.05537
G1 X142.141 Y98.666 E0.05792
G1 X142.693 Y100.429 E0.05792
G1 X143.064 Y102.239 E0.05792
G1 X143.251 Y104.076 E0.05792
G1 X143.251 Y105.924 E0.05792
G1 X143.064 Y107.761 E0.05792
G1 X142.693 Y109.571 E0.05792
G1 X142.141 Y111.334 E0.05792
G1 X141.413 Y113.032 E0.05792
G1 X140.557 Y114.576 E0.05537
G1 X133.394 Y114.576 E0.22460
G1 X133.086 Y114.211 E0.01498
G1 X132.752 Y113.941 E0.01347
G1 X132.377 Y113.732 E0.01347
G1 X131.971 Y113.591 E0.01347
G1 X131.547 Y113.522 E0.01347
G1 X131.118 Y113.527 E0.01347
G1 X130.695 Y113.606 E0.01347
G1 X130.293 Y113.757 E0.01347
G1 X129.923 Y113.975 E0.01347
G1 X129.596 Y114.253 E0.01347
G1 X129.321 Y114.584 E0.01347
G1 X129.108 Y114.957 E0.01347
G1 X128.962 Y115.361 E0.01347
G1 X128.888 Y115.784 E0.01347
G1 X128.888 Y116.213 E0.01347
G1 X128.962 Y116.636 E0.01347
G1 X129.108 Y117.041 E0.01347
G1 X129.321 Y117.413 E0.01347
G1 X129.596 Y117.744 E0.01347
G1 X129.923 Y118.022 E0.01347
G1 X130.293 Y118.240 E0.01347
G1 X130.695 Y118.391 E0.01347
G1 X131.118 Y118.470 E0.01347
G1 X131.547 Y118.475 E0.01347
G1 X131.971 Y118.406 E0.01347
G1 X132.377 Y118.265 E0.01347
G1 X132.752 Y118.057 E0.01347
G1 X133.086 Y117.786 E0.01347
G1 X133.394 Y117.421 E0.01498
G1 X138.369 Y117.421 E0.15601
G1 X137.340 Y118.473 E0.04615
G1 X135.927 Y119.641 E0.05749
G1 X134.403 Y120.662 E0.05753
G1 X132.784 Y121.526 E0.05753
G1 X131.086 Y122.222 E0.05753
G1 X129.327 Y122.745 E0.05753
G1 X127.525 Y123.088 E0.05753
G1 X125.697 Y123.249 E0.05753
G1 X123.862 Y123.226 E0.05753
G1 X122.039 Y123.018 E0.05753
G1 X120.246 Y122.629 E0.05753
G1 X118.501 Y122.062 E0.05753
G1 X116.822 Y121.322 E0.05753
G1 X115.225 Y120.418 E0.05753
G1 X113.727 Y119.358 E0.05753
G1 X112.343 Y118.153 E0.05753
G1 X111.088 Y116.815 E0.05753
G1 X109.972 Y115.358 E0.05753
G1 X109.009 Y113.797 E0.05753
G1 X108.207 Y112.146 E0.05753
G1 X107.574 Y110.424 E0.05753
G1 X107.118 Y108.647 E0.05753
G1 X106.842 Y106.833 E0.05753
G1 X106.750 Y105.000 E0.05753
G1 X106.842 Y103.167 E0.05753
G1 X107.118 Y101.353 E0.05753
G1 X107.574 Y99.576 E0.05753
G1 X108.207 Y97.854 E0.05753
G1 X109.009 Y96.203 E0.05753
G1 X109.972 Y94.642 E0.05753
G1 X111.088 Y93.185 E0.05753
G1 X112.343 Y91.847 E0.05753
G1 X113.727 Y90.642 E0.05753
G1 X115.225 Y89.582 E0.05753
G1 X116.822 Y88.678 E0.05753
G1 X118.501 Y87.938 E0.05753
G1 X120.246 Y87.371 E0.05753
G1 X122.039 Y86.982 E0.05753
G1 X123.862 Y86.774 E0.05753
G1 X125.697 Y86.751 E0.05753
G1 X127.525 Y86.912 E0.05753
G1 X129.327 Y87.255 E0.05753
M73 Q3 S14
G1 X131.086 Y87.778 E0.05753
G1 X132.784 Y88.474 E0.05753
G1 X134.403 Y89.338 E0.05753
G1 X135.927 Y90.359 E0.05753
M73 P3 R14
G1 X137.341 Y91.528 E0.05753
G1 X138.332 Y92.531 E0.04419
G1 X138.957 Y92.681 F10800.000
;TYPE:External perimeter
G1 F1200.000
G1 X138.956 Y92.787 E0.00332
G1 X138.900 Y92.888 E0.00362
G1 X138.781 Y92.950 E0.00421
G1 X133.180 Y92.956 E0.17561
G1 X133.063 Y92.761 E0.00715
G1 X132.823 Y92.486 E0.01142
G1 X132.540 Y92.257 E0.01142
G1 X132.222 Y92.080 E0.01142
G1 X131.878 Y91.961 E0.01142
G1 X131.519 Y91.902 E0.01142
G1 X131.155 Y91.907 E0.01142
G1 X130.797 Y91.974 E0.01142
G1 X130.456 Y92.102 E0.01142
G1 X130.142 Y92.286 E0.01142
G1 X129.865 Y92.522 E0.01142
G1 X129.632 Y92.802 E0.01142
G1 X129.451 Y93.118 E0.01142
G1 X129.328 Y93.461 E0.01142
G1 X129.265 Y93.819 E0.01142
G1 X129.265 Y94.184 E0.01142
G1 X129.328 Y94.542 E0.01142
G1 X129.451 Y94.885 E0.01142
G1 X129.632 Y95.201 E0.01142
G1 X129.865 Y95.481 E0.01142
G1 X130.142 Y95.717 E0.01142
G1 X130.456 Y95.901 E0.01142
G1 X130.797 Y96.029 E0.01142
G1 X131.155 Y96.096 E0.01142
G1 X131.519 Y96.101 E0.01142
G1 X131.878 Y96.042 E0.01142
G1 X132.222 Y95.923 E0.01142
G1 X132.540 Y95.746 E0.01142
G1 X132.823 Y95.517 E0.01142
G1 X133.063 Y95.242 E0.01142
G1 X133.180 Y95.046 E0.00715
G1 X140.622 Y95.046 E0.23332
G1 X140.721 Y95.063 E0.00316
G1 X140.786 Y95.099 E0.00231
G1 X140.846 Y95.167 E0.00284
G1 X141.752 Y96.802 E0.05862
G1 X142.495 Y98.535 E0.05912
G1 X143.058 Y100.334 E0.05912
G1 X143.437 Y102.181 E0.05912
G1 X143.628 Y104.057 E0.05912
G1 X143.628 Y105.943 E0.05912
G1 X143.437 Y107.819 E0.05912
G1 X143.058 Y109.666 E0.05912
G1 X142.495 Y111.465 E0.05912
G1 X141.752 Y113.198 E0.05912
G1 X140.820 Y114.870 E0.06001
G1 X140.755 Y114.922 E0.00262
G1 X140.630 Y114.954 E0.00404
G1 X133.180 Y114.954 E0.23359
G1 X133.063 Y114.758 E0.00715
G1 X132.823 Y114.483 E0.01142
G1 X132.540 Y114.254 E0.01142
G1 X132.222 Y114.077 E0.01142
G1 X131.878 Y113.958 E0.01142
G1 X131.519 Y113.899 E0.01142
G1 X131.155 Y113.904 E0.01142
G1 X130.797 Y113.971 E0.01142
G1 X130.456 Y114.099 E0.01142
G1 X130.142 Y114.283 E0.01142
G1 X129.865 Y114.519 E0.01142
G1 X129.632 Y114.799 E0.01142
G1 X129.451 Y115.115 E0.01142
G1 X129.328 Y115.458 E0.01142
G1 X129.265 Y115.816 E0.01142
G1 X129.265 Y116.181 E0.01142
G1 X129.328 Y116.539 E0.01142
G1 X129.382 Y116.689 E0.00498
G1 X129.451 Y116.882 E0.00644
G1 X129.632 Y117.198 E0.01142
G1 X129.865 Y117.478 E0.01142
G1 X130.142 Y117.714 E0.01142
G1 X130.456 Y117.898 E0.01142
G1 X130.797 Y118.026 E0.01142
G1 X131.155 Y118.093 E0.01142
G1 X131.519 Y118.098 E0.01142
G1 X131.878 Y118.039 E0.01142
G1 X132.222 Y117.920 E0.01142
G1 X132.540 Y117.743 E0.01142
G1 X132.823 Y117.514 E0.01142
G1 X133.063 Y117.239 E0.01142
G1 X133.180 Y117.044 E0.00715
G1 X138.728 Y117.044 E0.17395
G1 X138.850 Y117.073 E0.00393
G1 X138.900 Y117.112 E0.00199
G1 X138.956 Y117.213 E0.00362
G1 X138.957 Y117.329 E0.00362
G1 X138.934 Y117.383 E0.00184
G1 X137.596 Y118.751 E0.06001
G1 X136.153 Y119.944 E0.05870
G1 X134.597 Y120.986 E0.05872
G1 X132.944 Y121.867 E0.05872
G1 X131.212 Y122.578 E0.05872
G1 X129.417 Y123.112 E0.05872
G1 X127.577 Y123.462 E0.05872
G1 X125.711 Y123.626 E0.05872
G1 X123.838 Y123.602 E0.05872
G1 X121.978 Y123.391 E0.05872
G1 X120.147 Y122.993 E0.05872
G1 X118.366 Y122.414 E0.05872
G1 X116.652 Y121.660 E0.05872
G1 X115.023 Y120.737 E0.05872
G1 X113.494 Y119.655 E0.05872
G1 X112.082 Y118.425 E0.05872
G1 X110.800 Y117.060 E0.05872
G1 X109.661 Y115.573 E0.05872
G1 X108.678 Y113.979 E0.05872
G1 X107.859 Y112.294 E0.05872
G1 X107.214 Y110.536 E0.05872
G1 X106.748 Y108.722 E0.05872
G1 X106.467 Y106.870 E0.05872
G1 X106.373 Y105.000 E0.05872
G1 X106.467 Y103.130 E0.05872
G1 X106.748 Y101.278 E0.05872
G1 X107.214 Y99.464 E0.05872
G1 X107.859 Y97.706 E0.05872
G1 X108.678 Y96.021 E0.05872
G1 X109.661 Y94.427 E0.05872
G1 X110.800 Y92.940 E0.05872
G1 X112.082 Y91.575 E0.05872
G1 X113.494 Y90.345 E0.05872
G1 X115.023 Y89.263 E0.05872
G1 X116.652 Y88.340 E0.05872
G1 X118.366 Y87.586 E0.05872
G1 X120.147 Y87.007 E0.05872
G1 X121.978 Y86.609 E0.05872
G1 X123.838 Y86.398 E0.05872
G1 X125.711 Y86.374 E0.05872
G1 X127.577 Y86.538 E0.05872
G1 X129.417 Y86.888 E0.05872
G1 X131.212 Y87.422 E0.05872
G1 X132.944 Y88.133 E0.05872
G1 X134.597 Y89.014 E0.05872
G1 X136.153 Y90.056 E0.05872
G1 X137.596 Y91.250 E0.05872
M73 Q4 S14
G1 X138.896 Y92.565 E0.05798
G1 X138.929 Y92.628 E0.00222
G1 X138.881 Y92.755 F10800.000
;WIPE_START
G1 F8640.000
G1 X138.956 Y92.787 E-0.03725
G1 X138.900 Y92.888 E-0.02663
G1 X138.781 Y92.950 E-0.03100
G1 X135.901 Y92.953 E-0.66513
;WIPE_END
G1 E-0.04000 F2100.000
G1 Z0.600 F10800.000
M73 P4 R14
G1 X139.879 Y95.537
G1 Z0.200
G1 E0.80000 F2100.000
;TYPE:Solid infill
;WIDTH:0.421191
G1 F1200.000
G1 X140.815 Y96.473 E0.04165
G1 X141.159 Y97.093 E0.02229
G1 X141.353 Y97.545 E0.01548
G1 X139.514 Y95.706 E0.08179
G1 X138.979 Y95.706 E0.01683
G1 X141.754 Y98.481 E0.12343
G1 X141.875 Y98.764 E0.00969
G1 X142.045 Y99.308 E0.01791
G1 X138.444 Y95.706 E0.16019
G1 X137.909 Y95.706 E0.01683
G1 X142.289 Y100.087 E0.19484
G1 X142.419 Y100.500 E0.01362
G1 X142.483 Y100.816 E0.01015
G1 X137.374 Y95.706 E0.22728
G1 X136.839 Y95.706 E0.01683
G1 X142.622 Y101.489 E0.25722
G1 X142.760 Y102.162 E0.02161
G1 X136.304 Y95.706 E0.28716
G1 X135.769 Y95.706 E0.01683
G1 X142.834 Y102.771 E0.31426
G1 X142.894 Y103.367 E0.01882
G1 X135.234 Y95.706 E0.34074
G1 X134.699 Y95.706 E0.01683
G1 X142.955 Y103.962 E0.36723
G1 X142.968 Y104.510 E0.01724
G1 X134.164 Y95.706 E0.39161
M73 P4 R13
G1 X133.629 Y95.706 E0.01683
G1 X142.968 Y105.045 E0.41540
G1 X142.968 Y105.580 E0.01683
G1 X133.328 Y95.940 E0.42878
G1 X133.042 Y96.189 E0.01193
G1 X142.949 Y106.096 E0.44069
M73 Q4 S13
G1 X142.900 Y106.582 E0.01535
G1 X132.719 Y96.401 E0.45284
G1 X132.493 Y96.527 E0.00815
G1 X132.357 Y96.574 E0.00451
G1 X142.850 Y107.067 E0.46674
M73 P5 R13
M73 Q5 S13
G1 X142.801 Y107.553 E0.01535
G1 X131.948 Y96.700 E0.48278
G1 X131.568 Y96.761 E0.01209
G1 X131.473 Y96.760 E0.00299
G1 X142.724 Y108.011 E0.50047
G1 X142.633 Y108.455 E0.01425
G1 X130.685 Y96.507 E0.53147
;WIPE_START
G1 F8640.000
