; generated by PrusaSlicer 2.3.0+win64 on 2022-10-21 at 18:16:28 UTC

; 

; external perimeters extrusion width = 0.45mm
; perimeters extrusion width = 0.45mm
; infill extrusion width = 0.45mm
; solid infill extrusion width = 0.45mm
; top infill extrusion width = 0.40mm
; first layer extrusion width = 0.42mm

M73 P0 R15
M73 Q0 S15
M201 X1000 Y1000 Z200 E5000 ; sets maximum accelerations, mm/sec^2
M203 X200 Y200 Z12 E120 ; sets maximum feedrates, mm/sec
M204 P1250 R1250 T1250 ; sets acceleration (P, T) and retract acceleration (R), mm/sec^2
M205 X8.00 Y8.00 Z0.40 E4.50 ; sets the jerk limits, mm/sec
M205 S0 T0 ; sets the minimum extruding and travel feed rate, mm/sec
M107
;TYPE:Custom
M862.3 P "MK3" ; printer model check
M862.1 P0.4 ; nozzle diameter check
M115 U3.9.2 ; tell printer latest fw version
G90 ; use absolute coordinates
M83 ; extruder relative mode
M104 S215 ; set extruder temp
M140 S60 ; set bed temp
M190 S60 ; wait for bed temp
M109 S215 ; wait for extruder temp
G28 W ; home all without mesh bed level
G80 ; mesh bed leveling
G1 Y-3.0 F1000.0 ; go outside print area
G92 E0.0
G1 X60.0 E9.0 F1000.0 ; intro line
G1 X100.0 E12.5 F1000.0 ; intro line
G92 E0.0
M221 S95

; Don't change E values below. Excessive value can damage the printer.
M907 E430 ; set extruder motor current
G21 ; set units to millimeters
G90 ; use absolute coordinates
M83 ; use relative distances for extrusion
M900 K0.05 ; Filament gcode LA 1.5
M900 K30 ; Filament gcode LA 1.0
;LAYER_CHANGE
;Z:0.2
;HEIGHT:0.2
;BEFORE_LAYER_CHANGE
G92 E0.0
;0.2


G1 E-0.80000 F2100.000
G1 Z0.400 F10800.000
;AFTER_LAYER_CHANGE
;0.2
G1 X108.631 Y91.188
G1 Z0.200
G1 E0.80000 F2100.000
M204 S1000
;TYPE:Skirt
;WIDTH:0.42
G1 F1200.000
G1 X110.095 Y89.617 E0.06733
G1 X111.704 Y88.206 E0.06709
G1 X113.449 Y86.961 E0.06721
G1 X115.309 Y85.896 E0.06721
G1 X117.263 Y85.023 E0.06709
G1 X119.301 Y84.348 E0.06733
G1 X121.389 Y83.881 E0.06709
G1 X123.517 Y83.625 E0.06721
G1 X125.596 Y83.582 E0.06518
G1 X127.797 Y83.755 E0.06924
G1 X129.902 Y84.138 E0.06709
G1 X131.966 Y84.733 E0.06733
G1 X133.921 Y85.513 E0.06602
G1 X135.857 Y86.520 E0.06843
M73 Q1 S15
G1 X137.620 Y87.676 E0.06609
G1 X139.291 Y89.024 E0.06732
G1 X140.371 Y90.066 E0.04705
M73 P1 R15
G1 X143.297 Y93.830 E0.14948
G1 X144.327 Y95.725 E0.06763
G1 X145.143 Y97.662 E0.06591
G1 X145.780 Y99.727 E0.06775
G1 X146.201 Y101.815 E0.06679
G1 X146.412 Y103.935 E0.06679
G1 X146.413 Y106.057 E0.06655
G1 X146.201 Y108.185 E0.06703
G1 X145.780 Y110.273 E0.06679
G1 X145.154 Y112.309 E0.06679
G1 X144.332 Y114.266 E0.06655
G1 X143.086 Y116.482 E0.07973
G1 X140.545 Y119.739 E0.12951
G1 X139.313 Y120.956 E0.05431
G1 X137.653 Y122.301 E0.06698
G1 X135.861 Y123.477 E0.06718
G1 X133.961 Y124.469 E0.06722
G1 X131.971 Y125.265 E0.06721
G1 X129.911 Y125.859 E0.06721
G1 X127.803 Y126.245 E0.06721
G1 X125.670 Y126.417 E0.06709
G1 X123.576 Y126.378 E0.06566
G1 X121.398 Y126.120 E0.06876
G1 X119.306 Y125.654 E0.06721
G1 X117.268 Y124.979 E0.06733
G1 X115.317 Y124.108 E0.06697
G1 X113.450 Y123.040 E0.06745
G1 X111.708 Y121.797 E0.06709
G1 X110.097 Y120.384 E0.06721
G1 X108.708 Y118.899 E0.06375
G1 X107.340 Y117.117 E0.07042
G1 X106.272 Y115.383 E0.06387
G1 X105.235 Y113.240 E0.07465
G1 X104.541 Y111.331 E0.06369
G1 X104.010 Y109.246 E0.06745
G1 X103.691 Y107.134 E0.06697
G1 X103.587 Y104.887 E0.07054
M73 P1 R14
G1 X103.693 Y102.852 E0.06387
G1 X104.014 Y100.733 E0.06721
G1 X104.543 Y98.664 E0.06697
G1 X105.281 Y96.643 E0.06745
G1 X106.211 Y94.720 E0.06697
G1 X107.333 Y92.893 E0.06721
G1 X108.594 Y91.235 E0.06533
; printing object rigging pog.STL id:0 copy 0
;WIPE_START
G1 F8640.000
G1 X110.095 Y89.617 E-0.50962
G1 X110.911 Y88.902 E-0.25038
;WIPE_END
G1 E-0.04000 F2100.000
G1 Z0.600 F10800.000
G1 X110.703 Y100.580
G1 Z0.200
G1 E0.80000 F2100.000
;TYPE:Perimeter
G1 F1200.000
G1 X111.495 Y100.368 E0.02571
G1 X112.312 Y100.297 E0.02571
G1 X113.128 Y100.368 E0.02571
G1 X113.920 Y100.580 E0.02571
G1 X114.663 Y100.927 E0.02571
M73 Q1 S14
G1 X115.335 Y101.397 E0.02571
G1 X115.915 Y101.977 E0.02571
G1 X116.385 Y102.648 E0.02571
G1 X116.731 Y103.391 E0.02571
G1 X116.944 Y104.183 E0.02571
G1 X117.015 Y105.000 E0.02571
G1 X116.944 Y105.817 E0.02571
G1 X116.731 Y106.609 E0.02571
G1 X116.385 Y107.352 E0.02571
G1 X116.150 Y107.687 E0.01285
G1 X115.915 Y108.023 E0.01285
G1 X115.335 Y108.603 E0.02571
G1 X114.663 Y109.073 E0.02571
G1 X113.920 Y109.420 E0.02571
G1 X113.128 Y109.632 E0.02571
G1 X112.312 Y109.703 E0.02571
G1 X111.495 Y109.632 E0.02571
G1 X110.703 Y109.420 E0.02571
G1 X109.960 Y109.073 E0.02571
G1 X109.289 Y108.603 E0.02571
G1 X108.709 Y108.023 E0.02571
G1 X108.239 Y107.352 E0.02571
G1 X107.892 Y106.609 E0.02571
G1 X107.680 Y105.817 E0.02571
G1 X107.608 Y105.000 E0.02571
G1 X107.680 Y104.183 E0.02571
G1 X107.892 Y103.391 E0.02571
G1 X108.239 Y102.648 E0.02571
G1 X108.709 Y101.977 E0.02571
G1 X109.289 Y101.397 E0.02571
G1 X109.960 Y100.927 E0.02571
G1 X110.649 Y100.606 E0.02382
G1 X110.808 Y100.947 F10800.000
;TYPE:External perimeter
G1 F1200.000
G1 X111.561 Y100.741 E0.02447
G1 X112.312 Y100.675 E0.02364
G1 X113.063 Y100.741 E0.02364
G1 X113.791 Y100.936 E0.02364
G1 X114.474 Y101.255 E0.02364
G1 X115.092 Y101.687 E0.02364
G1 X115.625 Y102.220 E0.02364
G1 X116.057 Y102.838 E0.02364
G1 X116.376 Y103.521 E0.02364
G1 X116.571 Y104.249 E0.02364
G1 X116.637 Y105.000 E0.02364
G1 X116.571 Y105.751 E0.02364
G1 X116.376 Y106.479 E0.02364
G1 X116.057 Y107.162 E0.02364
G1 X115.841 Y107.471 E0.01182
G1 X115.625 Y107.780 E0.01182
G1 X115.092 Y108.313 E0.02364
G1 X114.474 Y108.745 E0.02364
G1 X113.791 Y109.064 E0.02364
G1 X113.063 Y109.259 E0.02364
G1 X112.312 Y109.325 E0.02364
G1 X111.561 Y109.259 E0.02364
G1 X110.833 Y109.064 E0.02364
G1 X110.149 Y108.745 E0.02364
G1 X109.532 Y108.313 E0.02364
G1 X108.999 Y107.780 E0.02364
G1 X108.566 Y107.162 E0.02364
G1 X108.248 Y106.479 E0.02364
G1 X108.053 Y105.751 E0.02364
G1 X107.987 Y105.000 E0.02364
G1 X108.053 Y104.249 E0.02364
G1 X108.248 Y103.521 E0.02364
G1 X108.566 Y102.838 E0.02364
G1 X108.999 Y102.220 E0.02364
G1 X109.532 Y101.687 E0.02364
G1 X110.149 Y101.255 E0.02364
G1 X110.754 Y100.973 E0.02091
G1 X110.876 Y100.553 F10800.000
;WIPE_START
G1 F8640.000
G1 X111.561 Y100.741 E-0.19388
G1 X112.312 Y100.675 E-0.17407
G1 X113.063 Y100.741 E-0.17407
G1 X113.791 Y100.936 E-0.17407
G1 X113.963 Y101.016 E-0.04391
;WIPE_END
G1 E-0.04000 F2100.000
M73 Q2 S14
G1 Z0.600 F10800.000
G1 X138.040 Y92.208
M73 P2 R14
G1 Z0.200
G1 E0.80000 F2100.000
;TYPE:Perimeter
G1 F1200.000
G1 X133.883 Y92.216 E0.13034
G1 X133.718 Y91.663 E0.01809
G1 X133.421 Y91.068 E0.02085
G1 X133.084 Y90.609 E0.01785
G1 X132.741 Y90.282 E0.01485
G1 X132.365 Y90.032 E0.01417
G1 X132.025 Y89.883 E0.01164
G1 X131.673 Y89.796 E0.01138
G1 X131.306 Y89.772 E0.01152
G1 X130.799 Y89.850 E0.01609
G1 X130.498 Y89.965 E0.01011
G1 X130.244 Y90.098 E0.00898
G1 X130.040 Y90.237 E0.00775
G1 X129.696 Y90.547 E0.01453
G1 X129.354 Y90.985 E0.01742
G1 X129.050 Y91.558 E0.02034
G1 X128.815 Y92.269 E0.02348
G1 X128.700 Y93.059 E0.02503
G1 X128.716 Y93.869 E0.02540
G1 X128.867 Y94.655 E0.02508
G1 X129.122 Y95.333 E0.02272
G1 X129.440 Y95.871 E0.01960
G1 X129.785 Y96.273 E0.01660
G1 X130.136 Y96.561 E0.01425
G1 X130.488 Y96.763 E0.01270
G1 X130.839 Y96.889 E0.01172
G1 X131.190 Y96.950 E0.01117
G1 X131.545 Y96.949 E0.01110
G1 X131.901 Y96.884 E0.01136
G1 X132.264 Y96.750 E0.01213
G1 X132.617 Y96.540 E0.01289
G1 X132.825 Y96.377 E0.00829
G1 X133.167 Y96.023 E0.01542
G1 X133.461 Y95.587 E0.01650
G1 X140.560 Y95.587 E0.22258
G1 X140.641 Y95.625 E0.00281
G1 X140.721 Y95.707 E0.00358
G1 X141.474 Y97.093 E0.04947
G1 X142.178 Y98.771 E0.05704
G1 X142.712 Y100.506 E0.05693
G1 X143.071 Y102.286 E0.05693
G1 X143.251 Y104.092 E0.05693
G1 X143.251 Y105.908 E0.05693
G1 X143.071 Y107.714 E0.05693
G1 X142.712 Y109.494 E0.05693
G1 X142.178 Y111.229 E0.05693
G1 X141.474 Y112.906 E0.05703
G1 X140.770 Y114.225 E0.04688
G1 X140.684 Y114.334 E0.00433
G1 X140.571 Y114.413 E0.00435
G1 X133.447 Y114.413 E0.22337
G1 X133.291 Y114.140 E0.00987
G1 X132.952 Y113.742 E0.01640
G1 X132.756 Y113.566 E0.00826
G1 X132.417 Y113.331 E0.01294
G1 X132.065 Y113.168 E0.01215
G1 X131.714 Y113.074 E0.01139
G1 X131.362 Y113.043 E0.01109
G1 X131.007 Y113.074 E0.01118
G1 X130.647 Y113.171 E0.01167
G1 X130.295 Y113.339 E0.01224
G1 X129.904 Y113.618 E0.01506
G1 X129.562 Y113.971 E0.01538
G1 X129.231 Y114.458 E0.01850
G1 X128.947 Y115.087 E0.02162
G1 X128.755 Y115.844 E0.02447
G1 X128.691 Y116.646 E0.02523
G1 X128.758 Y117.452 E0.02536
G1 X128.956 Y118.207 E0.02449
G1 X129.242 Y118.829 E0.02146
G1 X129.573 Y119.313 E0.01838
G1 X129.922 Y119.670 E0.01566
G1 X130.287 Y119.931 E0.01406
G1 X130.792 Y120.148 E0.01724
G1 X131.158 Y120.218 E0.01167
G1 X131.512 Y120.222 E0.01110
G1 X131.869 Y120.164 E0.01136
G1 X132.232 Y120.035 E0.01205
G1 X132.587 Y119.833 E0.01282
G1 X132.795 Y119.674 E0.00821
G1 X133.137 Y119.330 E0.01522
G1 X133.469 Y118.851 E0.01827
G1 X133.757 Y118.234 E0.02133
G1 X133.879 Y117.784 E0.01464
G1 X138.048 Y117.784 E0.13072
G1 X138.033 Y117.803 E0.00077
G1 X137.209 Y118.592 E0.03577
G1 X135.784 Y119.747 E0.05749
G1 X134.257 Y120.749 E0.05729
G1 X132.639 Y121.593 E0.05722
G1 X130.942 Y122.272 E0.05730
G1 X129.187 Y122.778 E0.05728
G1 X127.390 Y123.106 E0.05728
G1 X125.569 Y123.253 E0.05728
G1 X123.742 Y123.218 E0.05728
G1 X121.928 Y123.000 E0.05728
G1 X120.145 Y122.602 E0.05728
G1 X118.411 Y122.027 E0.05728
G1 X116.743 Y121.283 E0.05728
G1 X115.157 Y120.375 E0.05728
G1 X113.670 Y119.313 E0.05728
G1 X112.297 Y118.109 E0.05728
G1 X111.051 Y116.773 E0.05728
G1 X109.945 Y115.319 E0.05728
G1 X108.989 Y113.762 E0.05728
G1 X108.194 Y112.117 E0.05728
G1 X107.567 Y110.401 E0.05728
G1 X107.114 Y108.631 E0.05728
G1 X106.841 Y106.825 E0.05728
G1 X106.750 Y105.000 E0.05728
G1 X106.841 Y103.175 E0.05728
G1 X107.114 Y101.369 E0.05728
G1 X107.567 Y99.599 E0.05728
G1 X108.194 Y97.883 E0.05728
G1 X108.989 Y96.238 E0.05728
G1 X109.945 Y94.681 E0.05728
G1 X111.051 Y93.227 E0.05728
G1 X112.297 Y91.891 E0.05728
G1 X113.670 Y90.687 E0.05728
G1 X115.157 Y89.625 E0.05728
G1 X116.743 Y88.717 E0.05728
G1 X118.411 Y87.973 E0.05728
G1 X120.145 Y87.398 E0.05728
G1 X121.928 Y87.000 E0.05728
G1 X123.742 Y86.782 E0.05728
G1 X125.569 Y86.747 E0.05728
G1 X127.390 Y86.894 E0.05728
G1 X129.187 Y87.222 E0.05728
G1 X130.942 Y87.728 E0.05728
G1 X132.639 Y88.407 E0.05730
G1 X134.257 Y89.251 E0.05723
G1 X135.786 Y90.255 E0.05733
G1 X137.211 Y91.410 E0.05753
G1 X137.997 Y92.166 E0.03418
G1 X138.606 Y92.446 F10800.000
;TYPE:External perimeter
G1 F1200.000
G1 X138.605 Y92.587 E0.00440
G1 X133.582 Y92.593 E0.15747
M73 Q3 S14
G1 X133.564 Y92.466 E0.00403
G1 X133.366 Y91.802 E0.02173
G1 X133.098 Y91.265 E0.01882
G1 X132.800 Y90.859 E0.01579
G1 X132.500 Y90.573 E0.01301
G1 X132.191 Y90.368 E0.01161
G1 X131.903 Y90.241 E0.00986
G1 X131.615 Y90.170 E0.00932
G1 X131.323 Y90.151 E0.00918
G1 X130.896 Y90.217 E0.01354
G1 X130.653 Y90.309 E0.00815
G1 X130.439 Y90.422 E0.00759
G1 X130.273 Y90.534 E0.00628
M73 P3 R14
G1 X129.973 Y90.805 E0.01268
G1 X129.672 Y91.191 E0.01535
G1 X129.398 Y91.707 E0.01831
G1 X129.184 Y92.356 E0.02144
G1 X129.078 Y93.083 E0.02302
G1 X129.092 Y93.830 E0.02342
G1 X129.231 Y94.552 E0.02306
G1 X129.463 Y95.169 E0.02068
G1 X129.748 Y95.650 E0.01753
G1 X130.050 Y96.002 E0.01453
G1 X130.351 Y96.250 E0.01223
G1 X130.646 Y96.419 E0.01066
G1 X130.936 Y96.523 E0.00966
G1 X131.223 Y96.573 E0.00912
G1 X131.510 Y96.572 E0.00902
G1 X131.801 Y96.519 E0.00927
G1 X132.100 Y96.408 E0.01001
G1 X132.403 Y96.228 E0.01105
G1 X132.572 Y96.096 E0.00672
G1 X132.873 Y95.784 E0.01357
G1 X133.163 Y95.354 E0.01628
G1 X133.233 Y95.210 E0.00504
G1 X140.598 Y95.210 E0.23092
G1 X140.724 Y95.235 E0.00403
G1 X140.876 Y95.327 E0.00556
G1 X141.011 Y95.464 E0.00603
G1 X141.102 Y95.592 E0.00491
G1 X141.815 Y96.931 E0.04758
G1 X142.533 Y98.642 E0.05817
G1 X143.078 Y100.413 E0.05810
G1 X143.444 Y102.230 E0.05810
G1 X143.628 Y104.073 E0.05810
G1 X143.628 Y105.927 E0.05810
G1 X143.444 Y107.770 E0.05810
G1 X143.078 Y109.587 E0.05810
G1 X142.533 Y111.358 E0.05810
G1 X141.815 Y113.068 E0.05816
G1 X141.087 Y114.433 E0.04848
G1 X140.954 Y114.600 E0.00671
G1 X140.786 Y114.736 E0.00677
G1 X140.708 Y114.772 E0.00268
G1 X140.603 Y114.790 E0.00335
G1 X133.227 Y114.790 E0.23127
G1 X132.981 Y114.357 E0.01563
G1 X132.681 Y114.006 E0.01449
G1 X132.522 Y113.862 E0.00673
G1 X132.229 Y113.659 E0.01118
G1 X131.936 Y113.523 E0.01010
G1 X131.649 Y113.447 E0.00934
G1 X131.362 Y113.421 E0.00902
G1 X131.073 Y113.447 E0.00909
G1 X130.778 Y113.526 E0.00957
G1 X130.479 Y113.668 E0.01038
G1 X130.157 Y113.900 E0.01245
G1 X129.856 Y114.210 E0.01354
G1 X129.561 Y114.643 E0.01644
G1 X129.305 Y115.212 E0.01956
G1 X129.128 Y115.905 E0.02243
G1 X129.070 Y116.645 E0.02326
G1 X129.131 Y117.388 E0.02337
G1 X129.313 Y118.080 E0.02243
G1 X129.571 Y118.643 E0.01943
G1 X129.865 Y119.073 E0.01633
G1 X130.169 Y119.382 E0.01358
G1 X130.474 Y119.600 E0.01176
G1 X130.903 Y119.785 E0.01467
G1 X131.196 Y119.841 E0.00934
G1 X131.484 Y119.845 E0.00902
G1 X131.775 Y119.797 E0.00926
G1 X132.074 Y119.691 E0.00994
G1 X132.378 Y119.518 E0.01096
G1 X132.545 Y119.390 E0.00662
G1 X132.846 Y119.087 E0.01337
G1 X133.141 Y118.662 E0.01622
G1 X133.401 Y118.105 E0.01930
G1 X133.587 Y117.407 E0.02265
G1 X138.609 Y117.419 E0.15744
G1 X138.616 Y117.480 E0.00193
G1 X138.583 Y117.641 E0.00516
G1 X138.481 Y117.846 E0.00719
G1 X138.311 Y118.058 E0.00849
G1 X137.458 Y118.875 E0.03705
G1 X136.007 Y120.051 E0.05858
G1 X134.448 Y121.075 E0.05847
G1 X132.796 Y121.936 E0.05840
G1 X131.065 Y122.629 E0.05848
G1 X129.273 Y123.146 E0.05847
G1 X127.439 Y123.481 E0.05847
G1 X125.580 Y123.631 E0.05847
G1 X123.716 Y123.594 E0.05847
G1 X121.865 Y123.372 E0.05847
G1 X120.045 Y122.965 E0.05847
G1 X118.275 Y122.379 E0.05847
G1 X116.572 Y121.619 E0.05847
G1 X114.954 Y120.693 E0.05847
G1 X113.436 Y119.609 E0.05847
G1 X112.034 Y118.380 E0.05847
G1 X110.762 Y117.016 E0.05847
G1 X109.633 Y115.532 E0.05847
G1 X108.658 Y113.943 E0.05847
G1 X107.846 Y112.264 E0.05847
G1 X107.206 Y110.513 E0.05847
G1 X106.744 Y108.706 E0.05847
G1 X106.466 Y106.862 E0.05847
G1 X106.372 Y105.000 E0.05847
G1 X106.466 Y103.138 E0.05847
G1 X106.744 Y101.294 E0.05847
G1 X107.206 Y99.487 E0.05847
G1 X107.846 Y97.736 E0.05847
G1 X108.658 Y96.057 E0.05847
G1 X109.633 Y94.468 E0.05847
G1 X110.762 Y92.984 E0.05847
G1 X112.034 Y91.620 E0.05847
G1 X113.436 Y90.391 E0.05847
G1 X114.954 Y89.307 E0.05847
G1 X116.572 Y88.381 E0.05847
G1 X118.275 Y87.621 E0.05847
G1 X120.045 Y87.035 E0.05847
G1 X121.865 Y86.628 E0.05847
G1 X123.716 Y86.406 E0.05847
G1 X125.580 Y86.369 E0.05847
G1 X127.439 Y86.519 E0.05847
G1 X129.273 Y86.854 E0.05847
G1 X131.065 Y87.371 E0.05847
G1 X132.796 Y88.064 E0.05848
G1 X134.448 Y88.926 E0.05842
G1 X136.009 Y89.950 E0.05852
G1 X137.461 Y91.127 E0.05863
G1 X138.322 Y91.956 E0.03746
G1 X138.500 Y92.189 E0.00920
G1 X138.589 Y92.389 E0.00686
G1 X138.498 Y92.536 F10800.000
;WIPE_START
G1 F8640.000
G1 X138.605 Y92.587 E-0.04587
G1 X135.512 Y92.591 E-0.71413
;WIPE_END
G1 E-0.04000 F2100.000
G1 Z0.600 F10800.000
G1 X141.229 Y96.874
G1 Z0.200
G1 E0.80000 F2100.000
;TYPE:Solid infill
;WIDTH:0.4213
G1 F1200.000
G1 X140.224 Y95.869 E0.04469
G1 X139.689 Y95.869 E0.01684
G1 X141.351 Y97.531 E0.07394
G1 X141.739 Y98.454 E0.03150
M73 Q4 S14
G1 X139.154 Y95.869 E0.11501
G1 X138.619 Y95.869 E0.01684
G1 X142.044 Y99.294 E0.15238
M73 P4 R14
G1 X142.281 Y100.067 E0.02544
G1 X138.084 Y95.869 E0.18677
G1 X137.549 Y95.869 E0.01684
G1 X142.484 Y100.805 E0.21959
G1 X142.619 Y101.475 E0.02151
G1 X137.013 Y95.869 E0.24941
G1 X136.478 Y95.869 E0.01684
G1 X142.754 Y102.145 E0.27923
G1 X142.791 Y102.328 E0.00586
G1 X142.834 Y102.760 E0.01367
G1 X135.943 Y95.869 E0.30660
G1 X135.408 Y95.869 E0.01684
G1 X142.893 Y103.355 E0.33305
G1 X142.953 Y103.949 E0.01880
G1 X134.873 Y95.869 E0.35950
G1 X134.338 Y95.869 E0.01684
G1 X142.968 Y104.500 E0.38401
G1 X142.968 Y105.035 E0.01684
G1 X133.803 Y95.869 E0.40782
G1 X133.612 Y95.869 E0.00602
G1 X133.473 Y96.075 E0.00779
G1 X142.968 Y105.570 E0.42250
