; generated by PrusaSlicer 2.3.0+win64 on 2022-10-18 at 15:45:05 UTC

; 

; external perimeters extrusion width = 0.90mm
; perimeters extrusion width = 0.90mm
; infill extrusion width = 0.90mm
; solid infill extrusion width = 0.90mm
; top infill extrusion width = 0.80mm
; first layer extrusion width = 0.90mm

M73 P0 R84
M73 Q0 S84
M201 X1000 Y1000 Z200 E5000 ; sets maximum accelerations, mm/sec^2
M203 X200 Y200 Z12 E120 ; sets maximum feedrates, mm/sec
M204 P1250 R1250 T1250 ; sets acceleration (P, T) and retract acceleration (R), mm/sec^2
M205 X8.00 Y8.00 Z0.40 E4.50 ; sets the jerk limits, mm/sec
M205 S0 T0 ; sets the minimum extruding and travel feed rate, mm/sec
M107
;TYPE:Custom
M862.3 P "MK3S" ; printer model check
M115 U3.9.2 ; tell printer latest fw version
G90 ; use absolute coordinates
M83 ; extruder relative mode
M104 S220 ; set extruder temp
M140 S60 ; set bed temp
M190 S60 ; wait for bed temp
M109 S220 ; wait for extruder temp
G28 W ; home all without mesh bed level
G80 ; mesh bed leveling
G1 Y-3.0 F1000.0 ; go outside print area
G92 E0.0
G1 X60.0 E9.0 F1000.0 ; intro line
G1 X100.0 E12.5 F1000.0 ; intro line
G92 E0.0
M221 S95
G21 ; set units to millimeters
G90 ; use absolute coordinates
M83 ; use relative distances for extrusion
M900 K0.01 ; Filament gcode LA 1.5
; ; Filament gcode LA 1.0
;LAYER_CHANGE
;Z:0.3
;HEIGHT:0.3
;BEFORE_LAYER_CHANGE
G92 E0.0
;0.3


G1 E-1.00000 F2100.000
G1 Z0.400 F10800.000
;AFTER_LAYER_CHANGE
;0.3
G1 X83.643 Y26.701
G1 Z0.300
G1 E1.00000 F2100.000
M204 S1000
;TYPE:Skirt
;WIDTH:0.9
G1 F1200.000
G1 X84.192 Y25.412 E0.14593
G1 X85.012 Y24.080 E0.16305
G1 X86.023 Y22.893 E0.16257
G1 X87.097 Y21.957 E0.14845
G1 X88.548 Y21.036 E0.17911
G1 X89.829 Y20.483 E0.14541
G1 X91.900 Y19.979 E0.22218
G1 X93.244 Y19.884 E0.14040
G1 X156.755 Y19.884 E6.61930
G1 X158.404 Y20.020 E0.17248
G1 X160.173 Y20.484 E0.19063
G1 X161.377 Y20.996 E0.13636
G1 X162.524 Y21.685 E0.13938
G1 X163.924 Y22.840 E0.18914
G1 X165.018 Y24.121 E0.17562
G1 X165.934 Y25.677 E0.18814
G1 X166.435 Y26.917 E0.13938
G1 X166.753 Y28.186 E0.13636
G1 X166.929 Y29.846 E0.17402
G1 X166.936 Y179.945 E15.64370
M73 P0 R83
G1 X166.777 Y181.722 E0.18596
G1 X166.286 Y183.508 E0.19307
G1 X165.583 Y185.001 E0.17197
G1 X164.711 Y186.275 E0.16088
G1 X163.537 Y187.513 E0.17789
G1 X163.061 Y187.916 E0.06498
G1 X161.801 Y188.775 E0.15886
G1 X160.234 Y189.501 E0.18002
G1 X158.567 Y189.952 E0.18002
G1 X157.051 Y190.104 E0.15885
G1 X93.216 Y190.115 E6.65302
G1 X91.601 Y189.981 E0.16896
G1 X89.881 Y189.537 E0.18513
G1 X88.584 Y188.984 E0.14694
G1 X87.225 Y188.142 E0.16657
G1 X86.038 Y187.123 E0.16307
G1 X84.999 Y185.902 E0.16707
G1 X84.175 Y184.555 E0.16459
G1 X83.571 Y183.102 E0.16405
G1 X83.195 Y181.553 E0.16609
G1 X83.067 Y180.076 E0.15449
G1 X83.064 Y30.055 E15.63564
G1 X83.198 Y28.425 E0.17047
G1 X83.613 Y26.817 E0.17312
; printing object right receiver plate.STL id:0 copy 0
;WIPE_START
G1 F8640.000
G1 X84.192 Y25.412 E-0.35073
G1 X85.012 Y24.080 E-0.36124
G1 X85.680 Y23.295 E-0.23803
;WIPE_END
G1 E-0.05000 F2100.000
G1 Z0.700 F10800.000
G1 X123.117 Y120.147
G1 Z0.300
G1 E1.00000 F2100.000
;TYPE:Perimeter
G1 F1200.000
G1 X124.044 Y119.899 E0.10000
G1 X124.961 Y119.819 E0.09594
G1 X125.951 Y119.898 E0.10350
G1 X126.883 Y120.147 E0.10052
G1 X127.752 Y120.553 E0.10000
G1 X128.538 Y121.103 E0.10000
G1 X129.217 Y121.782 E0.10000
G1 X129.767 Y122.568 E0.10000
G1 X130.173 Y123.437 E0.10000
G1 X130.421 Y124.364 E0.10000
G1 X130.504 Y125.320 E0.10000
G1 X130.421 Y126.276 E0.10000
G1 X130.173 Y127.203 E0.10000
G1 X129.767 Y128.072 E0.10000
G1 X129.217 Y128.858 E0.10000
G1 X128.538 Y129.537 E0.10000
G1 X127.752 Y130.087 E0.10000
G1 X126.883 Y130.493 E0.10000
G1 X125.956 Y130.741 E0.10000
G1 X125.000 Y130.824 E0.10000
G1 X124.044 Y130.741 E0.10000
G1 X123.117 Y130.493 E0.10000
G1 X122.248 Y130.087 E0.10000
G1 X121.462 Y129.537 E0.10000
G1 X120.811 Y128.886 E0.09594
G1 X120.235 Y128.077 E0.10350
G1 X119.827 Y127.203 E0.10052
G1 X119.579 Y126.276 E0.10000
G1 X119.496 Y125.320 E0.10000
G1 X119.579 Y124.364 E0.10000
G1 X119.827 Y123.437 E0.10000
G1 X120.233 Y122.568 E0.10000
G1 X120.783 Y121.782 E0.10000
G1 X121.462 Y121.103 E0.10000
G1 X122.248 Y120.553 E0.10000
G1 X123.009 Y120.198 E0.08749
G1 X123.362 Y120.956 F10800.000
;TYPE:External perimeter
G1 F1200.000
G1 X124.190 Y120.725 E0.08958
G1 X124.964 Y120.657 E0.08104
G1 X125.809 Y120.725 E0.08826
G1 X126.596 Y120.936 E0.08494
G1 X127.333 Y121.279 E0.08476
G1 X127.999 Y121.746 E0.08476
G1 X128.574 Y122.321 E0.08476
G1 X129.041 Y122.987 E0.08476
G1 X129.384 Y123.724 E0.08476
G1 X129.595 Y124.510 E0.08476
G1 X129.666 Y125.320 E0.08476
G1 X129.595 Y126.130 E0.08476
G1 X129.384 Y126.916 E0.08476
G1 X129.041 Y127.653 E0.08476
G1 X128.574 Y128.319 E0.08476
G1 X127.999 Y128.894 E0.08476
G1 X127.333 Y129.361 E0.08476
G1 X126.596 Y129.704 E0.08476
G1 X125.810 Y129.915 E0.08476
G1 X125.000 Y129.986 E0.08476
G1 X124.190 Y129.915 E0.08476
G1 X123.404 Y129.704 E0.08476
G1 X122.667 Y129.361 E0.08476
G1 X122.001 Y128.894 E0.08476
G1 X121.451 Y128.344 E0.08104
G1 X120.960 Y127.654 E0.08826
G1 X120.616 Y126.916 E0.08494
G1 X120.405 Y126.130 E0.08476
G1 X120.334 Y125.320 E0.08476
G1 X120.405 Y124.510 E0.08476
G1 X120.616 Y123.724 E0.08476
G1 X120.959 Y122.987 E0.08476
G1 X121.426 Y122.321 E0.08476
G1 X122.001 Y121.746 E0.08476
G1 X122.667 Y121.279 E0.08476
G1 X123.253 Y121.006 E0.06737
G1 X123.495 Y120.167 F10800.000
;WIPE_START
G1 F8640.000
G1 X124.190 Y120.725 E-0.22584
G1 X124.964 Y120.657 E-0.17953
G1 X125.809 Y120.725 E-0.19553
G1 X126.596 Y120.936 E-0.18819
G1 X127.227 Y121.230 E-0.16091
;WIPE_END
G1 E-0.05000 F2100.000
G1 Z0.700 F10800.000
G1 X148.408 Y106.870
G1 Z0.300
G1 E1.00000 F2100.000
;TYPE:Perimeter
G1 F1200.000
G1 X148.133 Y106.279 E0.06793
G1 X147.964 Y105.650 E0.06793
G1 X147.907 Y105.000 E0.06793
G1 X147.964 Y104.351 E0.06793
G1 X148.133 Y103.721 E0.06793
G1 X148.408 Y103.131 E0.06793
G1 X148.782 Y102.597 E0.06793
G1 X149.243 Y102.136 E0.06793
G1 X149.777 Y101.762 E0.06793
G1 X150.368 Y101.487 E0.06793
G1 X150.997 Y101.318 E0.06793
G1 X151.613 Y101.264 E0.06445
G1 X152.289 Y101.316 E0.07068
G1 X152.925 Y101.487 E0.06862
G1 X153.516 Y101.762 E0.06793
G1 X154.050 Y102.136 E0.06793
G1 X154.511 Y102.597 E0.06793
G1 X154.885 Y103.131 E0.06793
G1 X155.160 Y103.721 E0.06793
G1 X155.329 Y104.351 E0.06793
G1 X155.386 Y105.000 E0.06793
G1 X155.329 Y105.650 E0.06793
G1 X155.160 Y106.279 E0.06793
G1 X154.885 Y106.870 E0.06793
G1 X154.511 Y107.404 E0.06793
G1 X154.050 Y107.865 E0.06793
G1 X153.516 Y108.238 E0.06793
G1 X152.925 Y108.514 E0.06793
G1 X152.296 Y108.683 E0.06793
G1 X151.647 Y108.739 E0.06793
G1 X150.997 Y108.683 E0.06793
G1 X150.368 Y108.514 E0.06793
G1 X149.777 Y108.238 E0.06793
G1 X149.243 Y107.865 E0.06793
G1 X148.782 Y107.404 E0.06793
G1 X148.477 Y106.968 E0.05542
G1 X149.162 Y106.489 F10800.000
;TYPE:External perimeter
G1 F1200.000
G1 X148.921 Y105.992 E0.05751
G1 X148.790 Y105.504 E0.05269
G1 X148.746 Y105.000 E0.05269
G1 X148.790 Y104.497 E0.05269
G1 X148.921 Y104.008 E0.05269
G1 X149.135 Y103.550 E0.05269
G1 X149.425 Y103.136 E0.05269
G1 X149.782 Y102.778 E0.05269
G1 X150.196 Y102.488 E0.05269
G1 X150.655 Y102.275 E0.05269
G1 X151.143 Y102.144 E0.05269
G1 X151.618 Y102.102 E0.04966
G1 X152.148 Y102.143 E0.05544
G1 X152.639 Y102.275 E0.05293
G1 X153.097 Y102.488 E0.05269
G1 X153.511 Y102.778 E0.05269
G1 X153.868 Y103.136 E0.05269
G1 X154.158 Y103.550 E0.05269
G1 X154.372 Y104.008 E0.05269
G1 X154.503 Y104.497 E0.05269
G1 X154.547 Y105.000 E0.05269
G1 X154.503 Y105.504 E0.05269
G1 X154.372 Y105.992 E0.05269
G1 X154.158 Y106.450 E0.05269
G1 X153.868 Y106.865 E0.05269
G1 X153.511 Y107.222 E0.05269
G1 X153.097 Y107.512 E0.05269
G1 X152.639 Y107.726 E0.05269
G1 X152.150 Y107.857 E0.05269
G1 X151.647 Y107.901 E0.05269
G1 X151.143 Y107.857 E0.05269
G1 X150.655 Y107.726 E0.05269
G1 X150.196 Y107.512 E0.05269
G1 X149.782 Y107.222 E0.05269
G1 X149.425 Y106.865 E0.05269
G1 X149.230 Y106.587 E0.03530
G1 X148.610 Y106.495 F10800.000
;WIPE_START
G1 F8640.000
G1 X148.921 Y105.992 E-0.15483
G1 X148.790 Y105.504 E-0.11674
G1 X148.746 Y105.000 E-0.11674
G1 X148.790 Y104.497 E-0.11674
G1 X148.921 Y104.008 E-0.11674
G1 X149.135 Y103.550 E-0.11674
G1 X149.425 Y103.136 E-0.11674
G1 X149.715 Y102.846 E-0.09474
;WIPE_END
G1 E-0.05000 F2100.000
G1 Z0.700 F10800.000
G1 X101.397 Y105.000
G1 Z0.300
G1 E1.00000 F2100.000
;TYPE:Perimeter
G1 F1200.000
G1 X101.340 Y105.650 E0.06793
G1 X101.172 Y106.279 E0.06793
G1 X100.896 Y106.870 E0.06793
G1 X100.522 Y107.404 E0.06793
G1 X100.061 Y107.865 E0.06793
G1 X99.528 Y108.238 E0.06793
G1 X98.937 Y108.514 E0.06793
G1 X98.340 Y108.674 E0.06445
G1 X97.665 Y108.740 E0.07068
G1 X97.009 Y108.683 E0.06862
G1 X96.379 Y108.514 E0.06793
G1 X95.788 Y108.238 E0.06793
G1 X95.254 Y107.865 E0.06793
G1 X94.794 Y107.404 E0.06793
G1 X94.420 Y106.870 E0.06793
G1 X94.144 Y106.279 E0.06793
G1 X93.976 Y105.650 E0.06793
G1 X93.919 Y105.000 E0.06793
G1 X93.976 Y104.351 E0.06793
G1 X94.144 Y103.721 E0.06793
G1 X94.420 Y103.131 E0.06793
G1 X94.794 Y102.597 E0.06793
G1 X95.254 Y102.136 E0.06793
G1 X95.788 Y101.762 E0.06793
G1 X96.379 Y101.487 E0.06793
G1 X97.009 Y101.318 E0.06793
G1 X97.625 Y101.264 E0.06445
G1 X98.301 Y101.316 E0.07068
G1 X98.937 Y101.487 E0.06862
G1 X99.528 Y101.762 E0.06793
G1 X100.061 Y102.136 E0.06793
G1 X100.522 Y102.597 E0.06793
G1 X100.896 Y103.131 E0.06793
G1 X101.172 Y103.721 E0.06793
G1 X101.340 Y104.351 E0.06793
G1 X101.387 Y104.881 E0.05542
G1 X100.554 Y104.954 F10800.000
;TYPE:External perimeter
G1 F1200.000
G1 X100.514 Y105.504 E0.05751
G1 X100.383 Y105.992 E0.05269
G1 X100.170 Y106.450 E0.05269
G1 X99.880 Y106.865 E0.05269
G1 X99.522 Y107.222 E0.05269
G1 X99.108 Y107.512 E0.05269
G1 X98.650 Y107.726 E0.05269
G1 X98.190 Y107.849 E0.04966
G1 X97.660 Y107.901 E0.05544
G1 X97.154 Y107.857 E0.05294
G1 X96.666 Y107.726 E0.05269
G1 X96.208 Y107.512 E0.05269
G1 X95.794 Y107.222 E0.05269
G1 X95.436 Y106.865 E0.05269
G1 X95.146 Y106.450 E0.05269
G1 X94.933 Y105.992 E0.05269
G1 X94.802 Y105.504 E0.05269
G1 X94.758 Y105.000 E0.05269
G1 X94.802 Y104.497 E0.05269
G1 X94.933 Y104.008 E0.05269
G1 X95.146 Y103.550 E0.05269
G1 X95.436 Y103.136 E0.05269
G1 X95.794 Y102.778 E0.05269
G1 X96.208 Y102.488 E0.05269
G1 X96.666 Y102.275 E0.05269
G1 X97.154 Y102.144 E0.05269
G1 X97.629 Y102.102 E0.04966
G1 X98.159 Y102.143 E0.05544
G1 X98.650 Y102.275 E0.05293
G1 X99.108 Y102.488 E0.05269
G1 X99.522 Y102.778 E0.05269
G1 X99.880 Y103.136 E0.05269
G1 X100.170 Y103.550 E0.05269
G1 X100.383 Y104.008 E0.05269
G1 X100.514 Y104.497 E0.05269
G1 X100.544 Y104.834 E0.03530
G1 X101.035 Y105.224 F10800.000
;WIPE_START
G1 F8640.000
G1 X100.514 Y105.504 E-0.15483
G1 X100.383 Y105.992 E-0.11674
G1 X100.170 Y106.450 E-0.11674
G1 X99.880 Y106.865 E-0.11674
G1 X99.522 Y107.222 E-0.11674
G1 X99.108 Y107.512 E-0.11674
G1 X98.650 Y107.726 E-0.11674
G1 X98.254 Y107.832 E-0.09474
;WIPE_END
G1 E-0.05000 F2100.000
G1 Z0.700 F10800.000
G1 X97.625 Y172.384
G1 Z0.300
G1 E1.00000 F2100.000
;TYPE:Perimeter
G1 F1200.000
G1 X98.301 Y172.436 E0.07068
G1 X98.937 Y172.607 E0.06862
G1 X99.528 Y172.882 E0.06793
G1 X100.061 Y173.256 E0.06793
G1 X100.522 Y173.717 E0.06793
G1 X100.896 Y174.251 E0.06793
G1 X101.172 Y174.841 E0.06793
G1 X101.340 Y175.471 E0.06793
G1 X101.397 Y176.120 E0.06793
G1 X101.340 Y176.770 E0.06793
G1 X101.172 Y177.399 E0.06793
G1 X100.896 Y177.990 E0.06793
G1 X100.522 Y178.524 E0.06793
G1 X100.061 Y178.985 E0.06793
G1 X99.528 Y179.359 E0.06793
G1 X98.937 Y179.634 E0.06793
G1 X98.307 Y179.803 E0.06793
G1 X97.658 Y179.859 E0.06793
G1 X97.009 Y179.803 E0.06793
G1 X96.379 Y179.634 E0.06793
G1 X95.788 Y179.359 E0.06793
G1 X95.254 Y178.985 E0.06793
G1 X94.794 Y178.524 E0.06793
G1 X94.420 Y177.990 E0.06793
G1 X94.144 Y177.399 E0.06793
G1 X93.976 Y176.770 E0.06793
G1 X93.919 Y176.120 E0.06793
G1 X93.976 Y175.471 E0.06793
G1 X94.144 Y174.841 E0.06793
G1 X94.420 Y174.251 E0.06793
G1 X94.794 Y173.717 E0.06793
G1 X95.254 Y173.256 E0.06793
G1 X95.788 Y172.882 E0.06793
G1 X96.379 Y172.607 E0.06793
G1 X97.009 Y172.438 E0.06793
G1 X97.505 Y172.394 E0.05194
G1 X97.578 Y173.227 F10800.000
;TYPE:External perimeter
G1 F1200.000
G1 X98.159 Y173.263 E0.06071
G1 X98.650 Y173.395 E0.05293
G1 X99.108 Y173.608 E0.05269
G1 X99.522 Y173.898 E0.05269
G1 X99.880 Y174.256 E0.05269
G1 X100.170 Y174.670 E0.05269
G1 X100.383 Y175.128 E0.05269
G1 X100.514 Y175.617 E0.05269
G1 X100.558 Y176.120 E0.05269
G1 X100.514 Y176.624 E0.05269
G1 X100.383 Y177.112 E0.05269
G1 X100.170 Y177.570 E0.05269
G1 X99.880 Y177.985 E0.05269
G1 X99.522 Y178.342 E0.05269
G1 X99.108 Y178.632 E0.05269
G1 X98.650 Y178.846 E0.05269
G1 X98.162 Y178.977 E0.05269
G1 X97.658 Y179.021 E0.05269
G1 X97.154 Y178.977 E0.05269
G1 X96.666 Y178.846 E0.05269
G1 X96.208 Y178.632 E0.05269
G1 X95.794 Y178.342 E0.05269
G1 X95.436 Y177.985 E0.05269
G1 X95.146 Y177.570 E0.05269
G1 X94.933 Y177.112 E0.05269
G1 X94.802 Y176.624 E0.05269
G1 X94.758 Y176.120 E0.05269
G1 X94.802 Y175.617 E0.05269
G1 X94.933 Y175.128 E0.05269
G1 X95.146 Y174.670 E0.05269
G1 X95.436 Y174.256 E0.05269
G1 X95.794 Y173.898 E0.05269
G1 X96.208 Y173.608 E0.05269
G1 X96.666 Y173.395 E0.05269
G1 X97.154 Y173.264 E0.05269
G1 X97.458 Y173.237 E0.03182
G1 X97.860 Y172.717 F10800.000
;WIPE_START
G1 F8640.000
G1 X98.159 Y173.263 E-0.16196
G1 X98.650 Y173.395 E-0.11727
G1 X99.108 Y173.608 E-0.11674
G1 X99.522 Y173.898 E-0.11674
G1 X99.880 Y174.256 E-0.11674
G1 X100.170 Y174.670 E-0.11674
G1 X100.383 Y175.128 E-0.11674
G1 X100.481 Y175.493 E-0.08708
;WIPE_END
G1 E-0.05000 F2100.000
G1 Z0.700 F10800.000
G1 X147.907 Y176.120
G1 Z0.300
G1 E1.00000 F2100.000
;TYPE:Perimeter
G1 F1200.000
G1 X147.964 Y175.471 E0.06793
G1 X148.133 Y174.841 E0.06793
G1 X148.408 Y174.251 E0.06793
G1 X148.782 Y173.717 E0.06793
G1 X149.243 Y173.256 E0.06793
G1 X149.777 Y172.882 E0.06793
G1 X150.368 Y172.607 E0.06793
G1 X150.997 Y172.438 E0.06793
G1 X151.613 Y172.384 E0.06445
G1 X152.289 Y172.436 E0.07068
G1 X152.925 Y172.607 E0.06862
G1 X153.516 Y172.882 E0.06793
G1 X154.050 Y173.256 E0.06793
G1 X154.511 Y173.717 E0.06793
G1 X154.885 Y174.251 E0.06793
G1 X155.160 Y174.841 E0.06793
G1 X155.329 Y175.471 E0.06793
G1 X155.386 Y176.120 E0.06793
G1 X155.329 Y176.770 E0.06793
G1 X155.160 Y177.399 E0.06793
G1 X154.885 Y177.990 E0.06793
G1 X154.511 Y178.524 E0.06793
G1 X154.074 Y178.961 E0.06445
G1 X153.522 Y179.356 E0.07068
M73 Q0 S83
G1 X152.925 Y179.634 E0.06862
G1 X152.296 Y179.803 E0.06793
G1 X151.647 Y179.859 E0.06793
G1 X150.997 Y179.803 E0.06793
G1 X150.368 Y179.634 E0.06793
G1 X149.777 Y179.359 E0.06793
G1 X149.243 Y178.985 E0.06793
G1 X148.782 Y178.524 E0.06793
G1 X148.408 Y177.990 E0.06793
G1 X148.133 Y177.399 E0.06793
G1 X147.964 Y176.770 E0.06793
G1 X147.918 Y176.240 E0.05543
G1 X148.750 Y176.167 F10800.000
;TYPE:External perimeter
G1 F1200.000
G1 X148.790 Y175.617 E0.05751
G1 X148.921 Y175.128 E0.05269
G1 X149.135 Y174.670 E0.05269
G1 X149.425 Y174.256 E0.05269
G1 X149.782 Y173.898 E0.05269
G1 X150.196 Y173.608 E0.05269
G1 X150.655 Y173.395 E0.05269
G1 X151.143 Y173.264 E0.05269
G1 X151.618 Y173.222 E0.04966
G1 X152.148 Y173.263 E0.05544
G1 X152.639 Y173.395 E0.05293
G1 X153.097 Y173.608 E0.05269
G1 X153.511 Y173.898 E0.05269
G1 X153.868 Y174.256 E0.05269
G1 X154.158 Y174.670 E0.05269
G1 X154.372 Y175.128 E0.05269
G1 X154.503 Y175.617 E0.05269
G1 X154.547 Y176.120 E0.05269
G1 X154.503 Y176.624 E0.05269
G1 X154.372 Y177.112 E0.05269
G1 X154.158 Y177.570 E0.05269
G1 X153.868 Y177.985 E0.05269
G1 X153.531 Y178.322 E0.04966
G1 X153.099 Y178.631 E0.05544
G1 X152.639 Y178.846 E0.05293
G1 X152.150 Y178.977 E0.05269
G1 X151.647 Y179.021 E0.05269
G1 X151.143 Y178.977 E0.05269
G1 X150.655 Y178.846 E0.05269
G1 X150.196 Y178.632 E0.05269
G1 X149.782 Y178.342 E0.05269
G1 X149.425 Y177.985 E0.05269
G1 X149.135 Y177.570 E0.05269
G1 X148.921 Y177.112 E0.05269
G1 X148.790 Y176.624 E0.05269
G1 X148.761 Y176.287 E0.03530
G1 X148.269 Y175.896 F10800.000
;WIPE_START
G1 F8640.000
G1 X148.790 Y175.617 E-0.15483
G1 X148.921 Y175.128 E-0.11674
