; generated by PrusaSlicer 2.3.0+win64 on 2023-01-06 at 20:04:22 UTC

; 

; external perimeters extrusion width = 0.45mm
; perimeters extrusion width = 0.45mm
; infill extrusion width = 0.45mm
; solid infill extrusion width = 0.45mm
; top infill extrusion width = 0.40mm
; first layer extrusion width = 0.42mm

M73 P0 R118
M73 Q0 S119
M201 X1000 Y1000 Z200 E5000 ; sets maximum accelerations, mm/sec^2
M203 X200 Y200 Z12 E120 ; sets maximum feedrates, mm/sec
M204 P1250 R1250 T1250 ; sets acceleration (P, T) and retract acceleration (R), mm/sec^2
M205 X8.00 Y8.00 Z0.40 E4.50 ; sets the jerk limits, mm/sec
M205 S0 T0 ; sets the minimum extruding and travel feed rate, mm/sec
M107
;TYPE:Custom
M862.3 P "MK3" ; printer model check
M862.1 P0.4 ; nozzle diameter check
M115 U3.11.0 ; tell printer latest fw version
G90 ; use absolute coordinates
M83 ; extruder relative mode
M104 S230 ; set extruder temp
M140 S85 ; set bed temp
M190 S85 ; wait for bed temp
M109 S230 ; wait for extruder temp
G28 W ; home all without mesh bed level
G80 ; mesh bed leveling
G1 Y-3.0 F1000.0 ; go outside print area
G92 E0.0
G1 X60.0 E9.0 F1000.0 ; intro line
G1 X100.0 E12.5 F1000.0 ; intro line
G92 E0.0
M221 S95

; Don't change E values below. Excessive value can damage the printer.
M907 E430 ; set extruder motor current
G21 ; set units to millimeters
G90 ; use absolute coordinates
M83 ; use relative distances for extrusion
M900 K0.08 ; Filament gcode LA 1.5
M900 K45 ; Filament gcode LA 1.0
;LAYER_CHANGE
;Z:0.2
;HEIGHT:0.2
;BEFORE_LAYER_CHANGE
G92 E0.0
;0.2


G1 E-1.00000 F2100.000
G1 Z0.200 F10800.000
;AFTER_LAYER_CHANGE
;0.2
G1 Z0.400
G1 X58.254 Y66.280
G1 Z0.200
G1 E1.00000 F2100.000
M204 S1000
;TYPE:Skirt
;WIDTH:0.42
G1 F1200.000
G1 X61.879 Y63.698 E0.13954
G1 X65.689 Y61.537 E0.13733
G1 X70.025 Y59.644 E0.14833
G1 X74.194 Y58.316 E0.13718
G1 X78.589 Y57.398 E0.14080
G1 X83.056 Y56.936 E0.14080
G1 X87.436 Y56.932 E0.13733
G1 X169.969 Y58.010 E2.58797
M73 Q0 S118
G1 X174.260 Y58.226 E0.13473
G1 X178.719 Y58.903 E0.14139
G1 X182.999 Y60.011 E0.13864
G1 X187.146 Y61.546 E0.13865
G1 X191.073 Y63.470 E0.13709
G1 X194.869 Y65.832 E0.14019
G1 X198.366 Y68.539 E0.13865
G1 X201.571 Y71.585 E0.13864
G1 X204.449 Y74.937 E0.13853
G1 X206.980 Y78.572 E0.13888
G1 X209.124 Y82.435 E0.13853
G1 X210.868 Y86.499 E0.13865
G1 X212.159 Y90.604 E0.13494
G1 X213.081 Y95.045 E0.14222
G1 X213.521 Y99.331 E0.13506
G1 X213.521 Y103.993 E0.14618
G1 X213.082 Y108.273 E0.13492
G1 X212.191 Y112.608 E0.13876
G1 X210.868 Y116.824 E0.13853
G1 X209.095 Y120.945 E0.14067
G1 X206.913 Y124.853 E0.14034
G1 X204.452 Y128.382 E0.13492
G1 X201.653 Y131.647 E0.13483
G1 X198.369 Y134.781 E0.14234
G1 X194.870 Y137.490 E0.13876
G1 X191.114 Y139.831 E0.13876
G1 X187.036 Y141.821 E0.14225
G1 X183.000 Y143.312 E0.13492
G1 X178.838 Y144.393 E0.13482
G1 X174.394 Y145.085 E0.14102
G1 X169.906 Y145.313 E0.14091
G1 X85.272 Y144.182 E2.65388
G1 X80.922 Y143.959 E0.13656
G1 X76.382 Y143.260 E0.14401
G1 X72.036 Y142.116 E0.14092
G1 X67.827 Y140.529 E0.14104
G1 X63.871 Y138.555 E0.13865
G1 X59.916 Y136.034 E0.14702
G1 X56.488 Y133.316 E0.13718
G1 X53.269 Y130.179 E0.14092
G1 X50.393 Y126.731 E0.14080
G1 X47.947 Y123.102 E0.13722
G1 X45.722 Y118.922 E0.14845
G1 X44.077 Y114.868 E0.13718
G1 X42.822 Y110.557 E0.14080
G1 X42.017 Y106.139 E0.14080
G1 X41.676 Y101.772 E0.13733
G1 X41.797 Y97.044 E0.14830
G1 X42.363 Y92.701 E0.13733
G1 X43.394 Y88.334 E0.14068
G1 X44.920 Y83.973 E0.14488
G1 X46.778 Y80.011 E0.13718
G1 X49.092 Y76.159 E0.14092
G1 X51.787 Y72.567 E0.14080
G1 X54.758 Y69.353 E0.13722
G1 X58.209 Y66.319 E0.14408
; printing object spool flange LARGE.STL id:1 copy 0
;WIPE_START
G1 F8640.000
G1 X61.557 Y63.928 E-0.95000
;WIPE_END
G1 E-0.05000 F2100.000
G1 Z0.400 F10800.000
G1 X157.055 Y97.366
G1 Z0.200
G1 E1.00000 F2100.000
;TYPE:Perimeter
G1 F1200.000
G1 X162.196 Y98.755 E0.16699
G1 X162.368 Y98.274 E0.01603
G1 X162.991 Y97.132 E0.04078
G1 X163.785 Y96.102 E0.04078
G1 X164.157 Y95.751 E0.01603
G1 X160.815 Y91.606 E0.16693
G1 X163.214 Y89.965 E0.09111
G1 X165.134 Y89.055 E0.06665
G1 X167.151 Y88.463 E0.06590
G1 X170.040 Y88.102 E0.09129
G1 X170.307 Y93.405 E0.16649
G1 X170.818 Y93.419 E0.01603
G1 X172.096 Y93.659 E0.04078
G1 X173.322 Y94.096 E0.04078
G1 X173.770 Y94.341 E0.01603
G1 X176.677 Y89.886 E0.16677
G1 X178.985 Y91.660 E0.09126
G1 X180.439 Y93.201 E0.06644
G1 X181.630 Y94.941 E0.06611
G1 X182.876 Y97.568 E0.09116
G1 X177.902 Y99.465 E0.16693
G1 X178.046 Y99.955 E0.01603
G1 X178.213 Y101.245 E0.04078
G1 X178.176 Y102.546 E0.04078
G1 X178.082 Y103.048 E0.01603
G1 X183.223 Y104.438 E0.16699
G1 X182.244 Y107.176 E0.09119
G1 X181.229 Y109.035 E0.06642
G1 X179.935 Y110.713 E0.06642
G1 X177.827 Y112.706 E0.09097
G1 X174.485 Y108.561 E0.16695
G1 X174.063 Y108.849 E0.01603
G1 X172.888 Y109.407 E0.04078
G1 X171.640 Y109.774 E0.04078
G1 X171.133 Y109.839 E0.01603
G1 X171.400 Y115.158 E0.16698
G1 X168.497 Y115.074 E0.09107
G1 X166.415 Y114.684 E0.06642
G1 X164.420 Y113.972 E0.06642
G1 X161.869 Y112.583 E0.09109
G1 X164.779 Y108.122 E0.16699
G1 X164.374 Y107.810 E0.01603
G1 X163.480 Y106.865 E0.04078
G1 X162.746 Y105.791 E0.04078
G1 X162.527 Y105.329 E0.01603
G1 X157.552 Y107.227 E0.16695
G1 X156.735 Y104.443 E0.09095
G1 X156.462 Y102.343 E0.06642
G1 X156.521 Y100.225 E0.06642
G1 X157.044 Y97.425 E0.08932
G1 X157.351 Y97.836 F10800.000
;TYPE:External perimeter
G1 F1200.000
G1 X162.435 Y99.210 E0.16512
G1 X162.713 Y98.428 E0.02603
G1 X163.308 Y97.339 E0.03892
G1 X164.066 Y96.355 E0.03892
G1 X164.669 Y95.785 E0.02603
G1 X161.365 Y91.687 E0.16507
G1 X163.402 Y90.293 E0.07739
G1 X165.269 Y89.408 E0.06479
M73 P0 R117
G1 X167.229 Y88.833 E0.06404
G1 X169.684 Y88.521 E0.07758
G1 X169.948 Y93.772 E0.16484
G1 X170.777 Y93.795 E0.02603
G1 X171.998 Y94.024 E0.03892
G1 X173.167 Y94.441 E0.03892
G1 X173.896 Y94.839 E0.02603
G1 X176.770 Y90.433 E0.16493
G1 X178.731 Y91.940 E0.07755
G1 X180.145 Y93.438 E0.06457
G1 X181.302 Y95.129 E0.06426
G1 X182.360 Y97.361 E0.07744
G1 X177.442 Y99.237 E0.16507
G1 X177.676 Y100.033 E0.02603
G1 X177.835 Y101.264 E0.03892
G1 X177.800 Y102.505 E0.03892
G1 X177.647 Y103.321 E0.02603
G1 X182.731 Y104.695 E0.16512
G1 X181.899 Y107.021 E0.07746
G1 X180.912 Y108.828 E0.06456
G1 X179.655 Y110.459 E0.06456
G1 X177.865 Y112.152 E0.07725
G1 X174.560 Y108.053 E0.16509
G1 X173.875 Y108.521 E0.02603
G1 X172.753 Y109.053 E0.03892
G1 X171.562 Y109.403 E0.03892
G1 X170.739 Y109.510 E0.02603
G1 X171.003 Y114.769 E0.16511
G1 X168.537 Y114.698 E0.07735
G1 X166.514 Y114.318 E0.06456
G1 X164.574 Y113.627 E0.06456
G1 X162.408 Y112.447 E0.07736
G1 X165.285 Y108.036 E0.16512
G1 X164.628 Y107.529 E0.02603
G1 X163.775 Y106.627 E0.03892
G1 X163.074 Y105.603 E0.03892
G1 X162.718 Y104.853 E0.02603
G1 X157.799 Y106.729 E0.16508
G1 X157.105 Y104.365 E0.07723
G1 X156.840 Y102.324 E0.06456
G1 X156.897 Y100.265 E0.06456
G1 X157.340 Y97.895 E0.07559
G1 X157.435 Y97.446 F10800.000
;WIPE_START
G1 F8640.000
G1 X161.323 Y98.924 E-0.95000
;WIPE_END
G1 E-0.05000 F2100.000
G1 Z0.400 F10800.000
G1 X130.739 Y91.513
G1 Z0.200
G1 E1.00000 F2100.000
;TYPE:Perimeter
G1 F1200.000
G1 X131.967 Y87.600 E0.12859
G1 X133.584 Y83.831 E0.12859
G1 X135.575 Y80.245 E0.12859
G1 X137.918 Y76.879 E0.12859
G1 X140.589 Y73.767 E0.12859
G1 X143.562 Y70.942 E0.12859
G1 X146.805 Y68.431 E0.12859
G1 X150.285 Y66.262 E0.12859
G1 X153.967 Y64.456 E0.12859
G1 X157.813 Y63.031 E0.12859
G1 X161.784 Y62.003 E0.12859
G1 X165.838 Y61.382 E0.12859
G1 X169.934 Y61.175 E0.12859
G1 X174.030 Y61.382 E0.12859
G1 X178.084 Y62.003 E0.12859
G1 X182.054 Y63.031 E0.12859
G1 X185.900 Y64.456 E0.12859
G1 X189.582 Y66.262 E0.12859
G1 X193.063 Y68.431 E0.12859
G1 X196.306 Y70.942 E0.12859
G1 X199.278 Y73.767 E0.12859
G1 X201.950 Y76.879 E0.12859
G1 X204.293 Y80.245 E0.12859
G1 X206.283 Y83.831 E0.12859
G1 X207.900 Y87.600 E0.12859
G1 X209.128 Y91.513 E0.12859
G1 X209.954 Y95.531 E0.12859
G1 X210.369 Y99.611 E0.12859
G1 X210.369 Y103.712 E0.12859
G1 X209.954 Y107.792 E0.12859
G1 X209.128 Y111.810 E0.12859
G1 X207.900 Y115.723 E0.12859
G1 X206.283 Y119.492 E0.12859
G1 X204.293 Y123.078 E0.12859
G1 X201.950 Y126.444 E0.12859
G1 X199.278 Y129.556 E0.12859
G1 X196.306 Y132.381 E0.12859
G1 X193.063 Y134.892 E0.12859
G1 X189.582 Y137.061 E0.12859
G1 X185.900 Y138.867 E0.12859
G1 X182.054 Y140.292 E0.12859
G1 X178.084 Y141.320 E0.12859
G1 X174.030 Y141.941 E0.12859
G1 X169.934 Y142.148 E0.12859
G1 X165.838 Y141.941 E0.12859
G1 X161.784 Y141.320 E0.12859
G1 X157.813 Y140.292 E0.12859
G1 X153.967 Y138.867 E0.12859
G1 X150.285 Y137.061 E0.12859
G1 X146.805 Y134.892 E0.12859
G1 X143.562 Y132.381 E0.12859
G1 X140.589 Y129.556 E0.12859
G1 X137.918 Y126.444 E0.12859
G1 X135.575 Y123.078 E0.12859
G1 X133.584 Y119.492 E0.12859
G1 X131.967 Y115.723 E0.12859
G1 X130.739 Y111.810 E0.12859
G1 X129.914 Y107.792 E0.12859
G1 X129.499 Y103.712 E0.12859
G1 X129.499 Y99.611 E0.12859
G1 X129.914 Y95.531 E0.12859
G1 X130.727 Y91.572 E0.12671
G1 X130.358 Y91.496 F10800.000
;TYPE:External perimeter
G1 F1200.000
G1 X131.613 Y87.469 E0.13226
G1 X133.245 Y83.665 E0.12979
G1 X135.254 Y80.046 E0.12979
G1 X137.619 Y76.648 E0.12979
G1 X140.315 Y73.507 E0.12979
G1 X143.316 Y70.655 E0.12979
G1 X146.589 Y68.122 E0.12979
G1 X150.102 Y65.932 E0.12979
G1 X153.819 Y64.109 E0.12979
G1 X157.700 Y62.671 E0.12979
G1 X161.708 Y61.634 E0.12979
G1 X165.800 Y61.007 E0.12979
G1 X169.934 Y60.797 E0.12979
G1 X174.068 Y61.007 E0.12979
G1 X178.160 Y61.634 E0.12979
G1 X182.167 Y62.671 E0.12979
G1 X186.049 Y64.109 E0.12979
G1 X189.765 Y65.932 E0.12979
G1 X193.278 Y68.122 E0.12979
G1 X196.552 Y70.655 E0.12979
G1 X199.552 Y73.507 E0.12979
G1 X202.248 Y76.648 E0.12979
G1 X204.613 Y80.046 E0.12979
G1 X206.622 Y83.665 E0.12979
G1 X208.254 Y87.469 E0.12979
G1 X209.494 Y91.419 E0.12979
G1 X210.327 Y95.474 E0.12979
G1 X210.746 Y99.592 E0.12979
G1 X210.746 Y103.731 E0.12979
G1 X210.327 Y107.850 E0.12979
G1 X209.494 Y111.904 E0.12979
G1 X208.254 Y115.854 E0.12979
G1 X206.622 Y119.658 E0.12979
G1 X204.613 Y123.277 E0.12979
G1 X202.248 Y126.675 E0.12979
G1 X199.552 Y129.816 E0.12979
G1 X196.552 Y132.668 E0.12979
G1 X193.278 Y135.202 E0.12979
G1 X189.765 Y137.391 E0.12979
G1 X186.049 Y139.214 E0.12979
G1 X182.167 Y140.652 E0.12979
G1 X178.160 Y141.690 E0.12979
G1 X174.068 Y142.316 E0.12979
G1 X169.934 Y142.526 E0.12979
G1 X165.800 Y142.316 E0.12979
G1 X161.708 Y141.690 E0.12979
G1 X157.700 Y140.652 E0.12979
G1 X153.819 Y139.214 E0.12979
G1 X150.102 Y137.391 E0.12979
G1 X146.589 Y135.202 E0.12979
G1 X143.316 Y132.668 E0.12979
G1 X140.315 Y129.816 E0.12979
G1 X137.619 Y126.675 E0.12979
G1 X135.254 Y123.277 E0.12979
G1 X133.245 Y119.658 E0.12979
G1 X131.613 Y115.854 E0.12979
G1 X130.374 Y111.904 E0.12979
G1 X129.541 Y107.850 E0.12979
G1 X129.122 Y103.731 E0.12979
G1 X129.122 Y99.592 E0.12979
G1 X129.541 Y95.474 E0.12979
G1 X130.346 Y91.555 E0.12543
G1 X130.743 Y91.389 F10800.000
;WIPE_START
G1 F8640.000
G1 X131.565 Y87.625 E-0.95000
;WIPE_END
G1 E-0.05000 F2100.000
G1 Z0.400 F10800.000
G1 X200.653 Y75.543
G1 Z0.200
G1 E1.00000 F2100.000
;TYPE:Solid infill
;WIDTH:0.420299
G1 F1200.000
G1 X199.073 Y73.962 E0.07015
G1 X196.121 Y71.157 E0.12777
G1 X194.405 Y69.828 E0.06811
G1 X201.947 Y77.370 E0.33468
M73 Q1 S118
G1 X203.169 Y79.125 E0.06712
G1 X192.386 Y68.343 E0.47849
M73 P1 R117
M73 Q1 S117
G1 X190.969 Y67.460 E0.05239
G1 X204.237 Y80.727 E0.58876
G1 X204.902 Y81.927 E0.04305
G1 X189.553 Y66.577 E0.68117
G1 X188.477 Y66.035 E0.03780
G1 X205.568 Y83.126 E0.75845
G1 X206.029 Y83.956 E0.02979
G1 X206.152 Y84.244 E0.00983
G1 X187.429 Y65.521 E0.83087
G1 X186.382 Y65.007 E0.03661
G1 X206.554 Y85.179 E0.89516
G1 X206.955 Y86.114 E0.03192
G1 X185.421 Y64.580 E0.95560
G1 X184.573 Y64.266 E0.02836
G1 X207.356 Y87.049 E1.01102
G1 X207.635 Y87.699 E0.02219
G1 X207.709 Y87.936 E0.00779
G1 X183.726 Y63.952 E1.06431
G1 X182.878 Y63.638 E0.02836
G1 X207.953 Y88.713 E1.11275
G1 X208.197 Y89.491 E0.02558
G1 X182.031 Y63.324 E1.16120
G1 X181.301 Y63.129 E0.02370
G1 X208.441 Y90.269 E1.20439
G1 X208.685 Y91.046 E0.02558
G1 X180.581 Y62.942 E1.24718
G1 X179.861 Y62.756 E0.02334
G1 X208.897 Y91.791 E1.28852
G1 X209.035 Y92.463 E0.02152
G1 X179.141 Y62.569 E1.32660
G1 X178.421 Y62.383 E0.02334
G1 X209.173 Y93.135 E1.36469
G1 X209.311 Y93.807 E0.02152
G1 X177.741 Y62.237 E1.40096
M73 P1 R116
G1 X177.111 Y62.141 E0.02001
G1 X209.449 Y94.478 E1.43506
G1 X209.587 Y95.150 E0.02152
G1 X176.481 Y62.044 E1.46915
G1 X175.850 Y61.947 E0.02001
G1 X209.696 Y95.793 E1.50197
G1 X209.757 Y96.387 E0.01874
G1 X175.220 Y61.851 E1.53262
G1 X174.590 Y61.754 E0.02001
G1 X209.817 Y96.981 E1.56327
G1 X209.877 Y97.576 E0.01874
G1 X173.964 Y61.662 E1.59372
G1 X173.402 Y61.634 E0.01766
G1 X209.938 Y98.170 E1.62135
G1 X209.998 Y98.764 E0.01874
G1 X172.840 Y61.605 E1.64898
G1 X172.278 Y61.577 E0.01766
G1 X210.059 Y99.358 E1.67661
G1 X210.086 Y99.625 E0.00843
G1 X210.086 Y99.919 E0.00921
G1 X171.715 Y61.548 E1.70277
G1 X171.153 Y61.520 E0.01766
G1 X210.086 Y100.452 E1.72772
G1 X210.086 Y100.986 E0.01675
G1 X170.591 Y61.491 E1.75266
G1 X170.029 Y61.463 E0.01766
G1 X210.086 Y101.520 E1.77761
M73 Q1 S116
G1 X210.086 Y102.054 E0.01675
G1 X169.512 Y61.479 E1.80056
G1 X169.004 Y61.505 E0.01596
G1 X210.086 Y102.587 E1.82310
G1 X210.086 Y103.121 E0.01675
G1 X168.496 Y61.531 E1.84564
M73 P2 R116
M73 Q2 S116
G1 X167.988 Y61.557 E0.01596
G1 X210.086 Y103.655 E1.86818
G1 X210.041 Y104.143 E0.01539
G1 X167.480 Y61.582 E1.88871
G1 X166.972 Y61.608 E0.01596
G1 X209.991 Y104.627 E1.90907
G1 X209.942 Y105.112 E0.01528
G1 X166.464 Y61.634 E1.92942
G1 X165.956 Y61.660 E0.01596
G1 X209.893 Y105.596 E1.94978
M73 P2 R115
G1 X209.844 Y106.081 E0.01528
G1 X165.485 Y61.722 E1.96848
G1 X165.022 Y61.793 E0.01469
G1 X209.794 Y106.565 E1.98683
G1 X209.745 Y107.050 E0.01528
G1 X164.560 Y61.864 E2.00519
G1 X164.097 Y61.935 E0.01469
G1 X209.696 Y107.534 E2.02354
G1 X209.623 Y107.995 E0.01465
G1 X163.634 Y62.006 E2.04086
G1 X163.171 Y62.077 E0.01469
G1 X209.532 Y108.438 E2.05736
G1 X209.441 Y108.881 E0.01418
G1 X162.709 Y62.148 E2.07386
G1 X162.246 Y62.219 E0.01469
G1 X209.350 Y109.323 E2.09036
G1 X209.259 Y109.766 E0.01418
G1 X161.788 Y62.295 E2.10664
G1 X161.364 Y62.404 E0.01374
G1 X209.168 Y110.209 E2.12142
G1 X209.077 Y110.652 E0.01418
G1 X160.940 Y62.514 E2.13620
M73 Q2 S115
G1 X160.516 Y62.624 E0.01374
G1 X208.987 Y111.094 E2.15097
G1 X208.896 Y111.537 E0.01418
G1 X160.092 Y62.734 E2.16575
G1 X159.668 Y62.843 E0.01374
G1 X208.785 Y111.960 E2.17964
G1 X208.657 Y112.366 E0.01336
G1 X159.244 Y62.953 E2.19280
G1 X158.820 Y63.063 E0.01374
G1 X208.530 Y112.772 E2.20595
G1 X208.402 Y113.179 E0.01336
G1 X158.396 Y63.173 E2.21911
M73 P3 R115
M73 Q3 S115
G1 X157.972 Y63.282 E0.01374
G1 X208.275 Y113.585 E2.23227
M73 P3 R114
G1 X208.147 Y113.991 E0.01336
G1 X157.577 Y63.421 E2.24416
G1 X157.187 Y63.565 E0.01303
G1 X208.020 Y114.397 E2.25579
G1 X207.892 Y114.804 E0.01336
G1 X156.798 Y63.709 E2.26741
G1 X156.409 Y63.853 E0.01303
G1 X207.765 Y115.210 E2.27904
G1 X207.638 Y115.616 E0.01336
G1 X156.019 Y63.998 E2.29067
G1 X155.630 Y64.142 E0.01303
G1 X207.478 Y115.990 E2.30087
G1 X207.318 Y116.364 E0.01275
G1 X155.240 Y64.286 E2.31104
G1 X154.851 Y64.430 E0.01303
G1 X207.157 Y116.737 E2.32121
G1 X206.997 Y117.110 E0.01275
G1 X154.461 Y64.575 E2.33138
M73 Q3 S114
G1 X154.072 Y64.719 E0.01302
G1 X206.837 Y117.484 E2.34153
G1 X206.677 Y117.857 E0.01275
G1 X153.714 Y64.895 E2.35030
G1 X153.356 Y65.071 E0.01251
G1 X206.516 Y118.231 E2.35908
G1 X206.356 Y118.604 E0.01275
G1 X152.998 Y65.246 E2.36786
G1 X152.640 Y65.422 E0.01251
G1 X176.983 Y89.765 E1.08027
G1 X179.175 Y91.449 E0.08673
G1 X180.660 Y93.023 E0.06789
G1 X181.568 Y94.350 E0.05047
G1 X206.196 Y118.978 E1.09290
G1 X206.036 Y119.351 E0.01275
G1 X182.229 Y95.545 E1.05645
G1 X182.711 Y96.560 E0.03527
G1 X205.846 Y119.696 E1.02668
G1 X205.656 Y120.039 E0.01232
G1 X183.193 Y97.576 E0.99685
G1 X183.263 Y97.723 E0.00511
G1 X182.932 Y97.849 E0.01109
G1 X205.466 Y120.382 E0.99996
G1 X205.275 Y120.725 E0.01232
G1 X182.546 Y97.996 E1.00865
M73 P3 R113
